;FLAVOR:Marlin
;TIME:11458
;Filament used: 6.94147m
;Layer height: 0.1
;MINX:76.4
;MINY:61.4
;MINZ:0.3
;MAXX:123.6
;MAXY:138.6
;MAXZ:27.5
;Generated with Cura_SteamEngine 4.2.1
M140 S60
M105
M190 S60
M104 S210
M105
M109 S210
M82 ;absolute extrusion mode
G21 ;metric values
 G90 ;absolute positioning
 M82 ;set extruder to absolute mode
 M107 ;start with the fan off
 G28 X0 Y0 ;move X/Y to min endstops
 G28 Z0 ;move Z to min endstops
 G1 Z15.0 F120 ;move the platform down 15mm
 G92 E0 ;zero the extruded length
 G1 F200 E6 ;extrude 6 mm of feed stock
 G92 E0 ;zero the extruded length again
 G1 F120 
 ;Put printing message on LCD screen
 M117 Printing...
M141 S28
G92 E0
G92 E0
G1 F1500 E-6.5
;LAYER_COUNT:273
;LAYER:0
M107
G0 F3600 X77.058 Y62.947 Z0.3
;TYPE:SKIRT
G1 F1500 E0
G1 F1800 X77.397 Y62.531 E0.02677
G1 X77.794 Y62.171 E0.05351
G1 X78.241 Y61.873 E0.08031
G1 X78.726 Y61.645 E0.10705
G1 X79.24 Y61.492 E0.1338
G1 X79.908 Y61.41 E0.16738
G1 X80.229 Y61.401 E0.1834
G1 X80.33 Y61.4 E0.18844
G1 X119.345 Y61.4 E2.13491
G1 X120.043 Y61.41 E2.16974
G1 X120.577 Y61.458 E2.19648
G1 X121.098 Y61.584 E2.22323
G1 X121.595 Y61.787 E2.25001
G1 X122.056 Y62.061 E2.27677
G1 X122.471 Y62.4 E2.3035
G1 X122.831 Y62.798 E2.33027
G1 X123.128 Y63.244 E2.35701
G1 X123.356 Y63.73 E2.38379
G1 X123.508 Y64.244 E2.41053
G1 X123.59 Y64.909 E2.44396
G1 X123.599 Y65.229 E2.45993
G1 X123.6 Y65.33 E2.46497
G1 X123.6 Y134.309 E5.90635
G1 X123.591 Y135.036 E5.94262
G1 X123.544 Y135.57 E5.96936
G1 X123.419 Y136.091 E5.99609
G1 X123.217 Y136.588 E6.02286
G1 X122.944 Y137.05 E6.04963
G1 X122.606 Y137.466 E6.07637
G1 X122.209 Y137.827 E6.10314
G1 X121.763 Y138.125 E6.1299
G1 X121.278 Y138.353 E6.15664
G1 X120.764 Y138.507 E6.18341
G1 X120.092 Y138.59 E6.21719
G1 X119.771 Y138.599 E6.23321
G1 X119.67 Y138.6 E6.23825
G1 X80.661 Y138.6 E8.18442
G1 X79.963 Y138.591 E8.21924
G1 X79.428 Y138.544 E8.24604
G1 X78.907 Y138.418 E8.27278
G1 X78.41 Y138.216 E8.29955
G1 X77.949 Y137.943 E8.32628
G1 X77.533 Y137.604 E8.35305
G1 X77.172 Y137.208 E8.37978
G1 X76.874 Y136.762 E8.40654
G1 X76.646 Y136.276 E8.43333
G1 X76.493 Y135.762 E8.46008
G1 X76.41 Y135.088 E8.49396
G1 X76.401 Y134.755 E8.51058
G1 X76.4 Y134.658 E8.51542
G1 X76.4 Y65.625 E11.95949
G1 X76.409 Y64.96 E11.99267
G1 X76.457 Y64.426 E12.01942
G1 X76.583 Y63.905 E12.04616
G1 X76.785 Y63.408 E12.07293
G1 X77.058 Y62.947 E12.09966
G0 F3600 X77.454 Y63.082
G1 F1800 X77.789 Y62.704 E12.12486
G1 X78.18 Y62.383 E12.15009
G1 X78.617 Y62.128 E12.17534
G1 X79.088 Y61.944 E12.20056
G1 X79.582 Y61.838 E12.22577
G1 X79.919 Y61.81 E12.24264
G1 X80.24 Y61.801 E12.25866
G1 X80.33 Y61.8 E12.26315
G1 X119.339 Y61.8 E14.20932
G1 X120.037 Y61.81 E14.24415
G1 X120.54 Y61.857 E14.26935
G1 X121.03 Y61.983 E14.29459
G1 X121.494 Y62.185 E14.31984
G1 X121.92 Y62.457 E14.34506
G1 X122.298 Y62.792 E14.37025
G1 X122.618 Y63.183 E14.39546
G1 X122.873 Y63.62 E14.4207
G1 X123.056 Y64.091 E14.44591
G1 X123.163 Y64.585 E14.47113
G1 X123.19 Y64.92 E14.4879
G1 X123.199 Y65.24 E14.50387
G1 X123.2 Y65.33 E14.50836
G1 X123.2 Y134.304 E17.94949
G1 X123.191 Y135.031 E17.98576
G1 X123.145 Y135.534 E18.01096
G1 X123.02 Y136.024 E18.03619
G1 X122.819 Y136.488 E18.06142
G1 X122.548 Y136.915 E18.08665
G1 X122.213 Y137.294 E18.11188
G1 X121.823 Y137.615 E18.13708
G1 X121.387 Y137.871 E18.16231
G1 X120.916 Y138.054 E18.18752
G1 X120.422 Y138.162 E18.21275
G1 X120.081 Y138.19 E18.22982
G1 X119.76 Y138.199 E18.24584
G1 X119.67 Y138.2 E18.25033
G1 X80.666 Y138.2 E20.19624
G1 X79.968 Y138.191 E20.23107
G1 X79.464 Y138.144 E20.25632
G1 X78.974 Y138.019 E20.28155
G1 X78.51 Y137.818 E20.30678
G1 X78.084 Y137.547 E20.33197
G1 X77.705 Y137.212 E20.35721
G1 X77.384 Y136.821 E20.38245
G1 X77.129 Y136.385 E20.40765
G1 X76.945 Y135.914 E20.43287
G1 X76.838 Y135.42 E20.45809
G1 X76.81 Y135.077 E20.47526
G1 X76.801 Y134.744 E20.49188
G1 X76.8 Y134.658 E20.49617
G1 X76.8 Y65.631 E23.93994
G1 X76.809 Y64.966 E23.97312
G1 X76.856 Y64.462 E23.99837
G1 X76.982 Y63.973 E24.02357
G1 X77.183 Y63.509 E24.0488
G1 X77.454 Y63.082 E24.07403
G1 F1500 E17.57403
;MESH:lidar-box.stl
G0 F3600 X79.335 Y65.614
G0 X80.614 Y65.614
G0 X100.628 Y96.385
G0 X100.608 Y96.482
;TYPE:WALL-INNER
G1 F1500 E24.07403
G1 F1800 X99.993 Y96.422 E24.10485
G1 X99.331 Y96.486 E24.13804
G1 X98.699 Y96.667 E24.17083
G1 X98.085 Y96.978 E24.20517
G1 X97.58 Y97.366 E24.23694
G1 X97.107 Y97.894 E24.27231
G1 X96.762 Y98.476 E24.30607
G1 X96.535 Y99.11 E24.33966
G1 X96.434 Y99.734 E24.3712
G1 X96.45 Y100.453 E24.40708
G1 X96.596 Y101.04 E24.43726
G1 X96.855 Y101.59 E24.46759
G1 X97.188 Y102.066 E24.49657
G1 X97.6 Y102.523 E24.52727
G1 X98.135 Y102.943 E24.5612
G1 X98.722 Y103.247 E24.59418
G1 X99.341 Y103.426 E24.62633
G1 X99.985 Y103.486 E24.65859
G1 X100.605 Y103.432 E24.68964
G1 X101.248 Y103.25 E24.72298
G1 X101.844 Y102.955 E24.75616
G1 X102.351 Y102.576 E24.78774
G1 X102.792 Y102.097 E24.82022
G1 X103.127 Y101.542 E24.85257
G1 X103.37 Y100.878 E24.88784
G1 X103.472 Y100.253 E24.91944
G1 X103.465 Y99.627 E24.95067
G1 X103.341 Y99.005 E24.98231
G1 X103.113 Y98.422 E25.01354
G1 X102.787 Y97.895 E25.04446
G1 X102.28 Y97.366 E25.08102
G1 X101.73 Y96.964 E25.115
G1 X101.198 Y96.678 E25.14514
G1 X100.608 Y96.482 E25.17615
G0 F3600 X100.628 Y96.385
G0 X99.324 Y96.447
G0 X98.064 Y96.945
G0 X97.075 Y97.871
G0 X80.67 Y134.33
G0 X80.6 Y134.4
G1 F1800 X80.6 Y65.6 E28.6086
G1 X119.4 Y65.6 E30.54434
G1 X119.4 Y134.4 E33.97679
G1 X80.6 Y134.4 E35.91253
G0 F3600 X80.2 Y134.8
;TYPE:WALL-OUTER
G1 F1800 X80.2 Y65.2 E39.38488
G1 X119.8 Y65.2 E41.36054
G1 X119.8 Y134.8 E44.83289
G1 X80.2 Y134.8 E46.80855
G0 F3600 X80.2 Y134.6
G0 X80.67 Y134.33
G0 X96.726 Y98.459
G0 X97.553 Y97.337
G0 X98.685 Y96.63
G0 X100.573 Y96.379
G0 X100.524 Y96.876
G1 F1800 X99.993 Y96.824 E46.83516
G1 X99.406 Y96.881 E46.86459
G1 X98.846 Y97.041 E46.89364
G1 X98.299 Y97.318 E46.92423
G1 X97.853 Y97.661 E46.9523
G1 X97.431 Y98.132 E46.98385
G1 X97.126 Y98.647 E47.01372
G1 X96.924 Y99.21 E47.04356
G1 X96.835 Y99.762 E47.07145
G1 X96.849 Y100.4 E47.10329
G1 X96.975 Y100.905 E47.12926
G1 X97.202 Y101.389 E47.15593
G1 X97.502 Y101.816 E47.18196
G1 X97.874 Y102.23 E47.20973
G1 X98.352 Y102.605 E47.24004
G1 X98.871 Y102.874 E47.2692
G1 X99.416 Y103.031 E47.2975
G1 X99.986 Y103.084 E47.32606
G1 X100.533 Y103.037 E47.35345
G1 X101.104 Y102.875 E47.38306
G1 X101.634 Y102.613 E47.41256
G1 X102.082 Y102.278 E47.44047
G1 X102.47 Y101.856 E47.46907
G1 X102.765 Y101.368 E47.49752
G1 X102.981 Y100.776 E47.52896
G1 X103.072 Y100.223 E47.55692
G1 X103.065 Y99.669 E47.58456
G1 X102.956 Y99.118 E47.61258
G1 X102.754 Y98.602 E47.64023
G1 X102.469 Y98.141 E47.66727
G1 X102.016 Y97.668 E47.69994
G1 X101.516 Y97.303 E47.73083
G1 X101.039 Y97.047 E47.75783
G1 X100.524 Y96.876 E47.78491
G0 F3600 X100.325 Y96.857
G0 X100.69 Y96.098
;TYPE:SKIN
G1 F1800 X99.993 Y96.03 E47.81984
G1 X99.258 Y96.102 E47.85669
G1 X98.556 Y96.302 E47.89311
G1 X97.876 Y96.647 E47.93115
G1 X97.313 Y97.079 E47.96655
G1 X96.791 Y97.662 E48.00559
G1 X96.407 Y98.31 E48.04317
G1 X96.156 Y99.012 E48.08037
G1 X96.044 Y99.707 E48.11549
G1 X96.062 Y100.505 E48.15531
G1 X96.227 Y101.171 E48.18954
G1 X96.516 Y101.787 E48.22349
G1 X96.882 Y102.31 E48.25534
G1 X97.333 Y102.809 E48.28889
G1 X97.923 Y103.273 E48.32634
G1 X98.577 Y103.611 E48.36307
G1 X99.268 Y103.81 E48.39894
G1 X99.983 Y103.878 E48.43478
G1 X100.675 Y103.818 E48.46943
G1 X101.389 Y103.615 E48.50646
G1 X102.049 Y103.289 E48.54319
G1 X102.614 Y102.867 E48.57837
G1 X103.106 Y102.333 E48.6146
G1 X103.48 Y101.711 E48.6508
G1 X103.749 Y100.977 E48.68981
G1 X103.862 Y100.282 E48.72494
G1 X103.855 Y99.586 E48.75966
G1 X103.717 Y98.895 E48.79482
G1 X103.464 Y98.247 E48.82952
G1 X103.097 Y97.655 E48.86427
G1 X102.538 Y97.072 E48.90457
G1 X101.938 Y96.633 E48.94166
G1 X101.352 Y96.319 E48.97483
G1 X100.69 Y96.098 E49.00965
G0 F3600 X119.01 Y65.99
G1 F1800 X119.01 Y134.01 E52.40318
G1 X80.99 Y134.01 E54.3
G1 X80.99 Y65.99 E57.69353
G1 X119.01 Y65.99 E59.59036
G0 F3600 X118.83 Y66.786
G1 F1800 X118.213 Y66.17 E59.63386
G0 F3600 X117.647 Y66.17
G1 F1800 X118.83 Y67.352 E59.71729
G0 F3600 X118.83 Y67.918
G1 F1800 X117.082 Y66.17 E59.84062
G0 F3600 X116.516 Y66.17
G1 F1800 X118.83 Y68.483 E60.00385
G0 F3600 X118.83 Y69.049
G1 F1800 X115.95 Y66.17 E60.20701
G0 F3600 X115.384 Y66.17
G1 F1800 X118.83 Y69.615 E60.45011
G0 F3600 X118.83 Y70.181
G1 F1800 X114.819 Y66.17 E60.73311
G0 F3600 X114.253 Y66.17
G1 F1800 X118.83 Y70.746 E61.05601
G0 F3600 X118.83 Y71.312
G1 F1800 X113.687 Y66.17 E61.41884
G0 F3600 X113.122 Y66.17
G1 F1800 X118.83 Y71.878 E61.82157
G0 F3600 X118.83 Y72.443
G1 F1800 X112.556 Y66.17 E62.2642
G0 F3600 X111.99 Y66.17
G1 F1800 X118.83 Y73.009 E62.74676
G0 F3600 X118.83 Y73.575
G1 F1800 X111.425 Y66.17 E63.26922
G0 F3600 X110.859 Y66.17
G1 F1800 X118.83 Y74.14 E63.83159
G0 F3600 X118.83 Y74.706
G1 F1800 X110.293 Y66.17 E64.43388
G0 F3600 X109.728 Y66.17
G1 F1800 X118.83 Y75.272 E65.07608
G0 F3600 X118.83 Y75.837
G1 F1800 X109.162 Y66.17 E65.75817
G0 F3600 X108.596 Y66.17
G1 F1800 X118.83 Y76.403 E66.4802
G0 F3600 X118.83 Y76.969
G1 F1800 X108.031 Y66.17 E67.24213
G0 F3600 X107.465 Y66.17
G1 F1800 X118.83 Y77.534 E68.04395
G0 F3600 X118.83 Y78.1
G1 F1800 X106.899 Y66.17 E68.88572
G0 F3600 X106.334 Y66.17
G1 F1800 X118.83 Y78.666 E69.76738
G0 F3600 X118.83 Y79.232
G1 F1800 X105.768 Y66.17 E70.68897
G0 F3600 X105.202 Y66.17
G1 F1800 X118.83 Y79.797 E71.65046
G0 F3600 X118.83 Y80.363
G1 F1800 X104.636 Y66.17 E72.65189
G0 F3600 X104.071 Y66.17
G1 F1800 X118.83 Y80.929 E73.69322
G0 F3600 X118.83 Y81.494
G1 F1800 X103.505 Y66.17 E74.77445
G0 F3600 X102.939 Y66.17
G1 F1800 X118.83 Y82.06 E75.89561
G0 F3600 X118.83 Y82.626
G1 F1800 X102.374 Y66.17 E77.05667
G0 F3600 X101.808 Y66.17
G1 F1800 X118.83 Y83.191 E78.25763
G0 F3600 X118.83 Y83.757
G1 F1800 X101.242 Y66.17 E79.49852
G0 F3600 X100.677 Y66.17
G1 F1800 X118.83 Y84.323 E80.77931
G0 F3600 X118.83 Y84.888
G1 F1800 X100.111 Y66.17 E82.1
G0 F3600 X99.545 Y66.17
G1 F1800 X118.83 Y85.454 E83.46063
G0 F3600 X118.83 Y86.02
G1 F1800 X98.98 Y66.17 E84.86115
G0 F3600 X98.414 Y66.17
G1 F1800 X118.83 Y86.585 E86.30158
G0 F3600 X118.83 Y87.151
G1 F1800 X97.848 Y66.17 E87.78193
G0 F3600 X97.283 Y66.17
G1 F1800 X118.83 Y87.717 E89.30219
G0 F3600 X118.83 Y88.282
G1 F1800 X96.717 Y66.17 E90.86235
G0 F3600 X96.151 Y66.17
G1 F1800 X118.83 Y88.848 E92.46244
G0 F3600 X118.83 Y89.414
G1 F1800 X95.585 Y66.17 E94.10246
G0 F3600 X95.02 Y66.17
G1 F1800 X118.83 Y89.98 E95.78239
G0 F3600 X118.83 Y90.545
G1 F1800 X94.454 Y66.17 E97.50221
G0 F3600 X93.888 Y66.17
G1 F1800 X118.83 Y91.111 E99.26197
G0 F3600 X118.83 Y91.677
G1 F1800 X93.323 Y66.17 E101.06162
G0 F3600 X92.757 Y66.17
G1 F1800 X118.83 Y92.242 E102.90118
G0 F3600 X118.83 Y92.808
G1 F1800 X92.191 Y66.17 E104.78067
G0 F3600 X91.626 Y66.17
G1 F1800 X118.83 Y93.374 E106.70006
G0 F3600 X118.83 Y93.939
G1 F1800 X91.06 Y66.17 E108.65935
G0 F3600 X90.494 Y66.17
G1 F1800 X118.83 Y94.505 E110.65857
G0 F3600 X118.83 Y95.071
G1 F1800 X89.929 Y66.17 E112.69769
G0 F3600 X89.363 Y66.17
G1 F1800 X118.83 Y95.636 E114.77671
G0 F3600 X118.83 Y96.202
G1 F1800 X88.797 Y66.17 E116.89567
G0 F3600 X88.232 Y66.17
G1 F1800 X118.83 Y96.768 E119.05452
G0 F3600 X118.83 Y97.333
G1 F1800 X87.666 Y66.17 E121.25328
G0 F3600 X87.1 Y66.17
G1 F1800 X118.83 Y97.899 E123.49196
G0 F3600 X118.83 Y98.465
G1 F1800 X86.535 Y66.17 E125.77055
G0 F3600 X85.969 Y66.17
G1 F1800 X118.83 Y99.031 E128.08907
G0 F3600 X118.83 Y99.596
G1 F1800 X85.403 Y66.17 E130.44749
G0 F3600 X84.837 Y66.17
G1 F1800 X118.83 Y100.162 E132.84585
G0 F3600 X118.83 Y100.728
G1 F1800 X84.272 Y66.17 E135.2841
G0 F3600 X83.706 Y66.17
G1 F1800 X118.83 Y101.293 E137.76225
G0 F3600 X118.83 Y101.859
G1 F1800 X83.14 Y66.17 E140.28034
G0 F3600 X82.575 Y66.17
G1 F1800 X118.83 Y102.425 E142.83832
G0 F3600 X118.83 Y102.99
G1 F1800 X82.009 Y66.17 E145.43621
G0 F3600 X81.443 Y66.17
G1 F1800 X118.83 Y103.556 E148.07403
G0 F3600 X118.83 Y104.122
G1 F1800 X81.169 Y66.461 E150.73122
G0 F3600 X81.169 Y67.027
G1 F1800 X118.83 Y104.687 E153.38837
G0 F3600 X118.83 Y105.253
G1 F1800 X81.169 Y67.593 E156.04552
G0 F3600 X81.169 Y68.158
G1 F1800 X118.83 Y105.819 E158.70271
G0 F3600 X118.83 Y106.384
G1 F1800 X81.169 Y68.724 E161.35986
G0 F3600 X81.169 Y69.29
G1 F1800 X118.83 Y106.95 E164.01701
G0 F3600 X118.83 Y107.516
G1 F1800 X81.169 Y69.855 E166.6742
G0 F3600 X81.169 Y70.421
G1 F1800 X118.83 Y108.081 E169.33135
G0 F3600 X118.83 Y108.647
G1 F1800 X81.169 Y70.987 E171.9885
G0 F3600 X81.169 Y71.552
G1 F1800 X118.83 Y109.213 E174.64569
G0 F3600 X118.83 Y109.779
G1 F1800 X81.169 Y72.118 E177.30287
G0 F3600 X81.169 Y72.684
G1 F1800 X118.83 Y110.344 E179.96003
G0 F3600 X118.83 Y110.91
G1 F1800 X81.169 Y73.249 E182.61721
G0 F3600 X81.169 Y73.815
G1 F1800 X118.83 Y111.476 E185.2744
G0 F3600 X118.83 Y112.041
G1 F1800 X81.169 Y74.381 E187.93155
G0 F3600 X81.169 Y74.946
G1 F1800 X118.83 Y112.607 E190.58874
G0 F3600 X118.83 Y113.173
G1 F1800 X103.3 Y97.643 E191.68446
G1 X103.23 Y97.573
G0 F3600 X102.419 Y96.762
G1 F1800 X81.169 Y75.512 E193.18377
G0 F3600 X81.169 Y76.078
G1 F1800 X101.155 Y96.063 E194.59385
G0 F3600 X100.415 Y95.89
G1 F1800 X81.169 Y76.644 E195.95176
G0 F3600 X81.169 Y77.209
G1 F1800 X99.825 Y95.865 E197.26804
G0 F3600 X99.309 Y95.915
G1 F1800 X81.169 Y77.775 E198.54792
G0 F3600 X81.169 Y78.341
G1 F1800 X98.857 Y96.028 E199.79587
G0 F3600 X98.427 Y96.164
G1 F1800 X81.169 Y78.906 E201.01351
G0 F3600 X81.169 Y79.472
G1 F1800 X98.051 Y96.354 E202.20463
G0 F3600 X97.691 Y96.559
G1 F1800 X81.169 Y80.038 E203.37031
G0 F3600 X81.169 Y80.603
G1 F1800 X97.371 Y96.805 E204.51345
G0 F3600 X97.074 Y97.074
G1 F1800 X81.169 Y81.169 E205.63563
G0 F3600 X81.169 Y81.735
G1 F1800 X96.807 Y97.373 E206.73898
G0 F3600 X96.562 Y97.693
G1 F1800 X81.169 Y82.3 E207.82503
G0 F3600 X81.169 Y82.866
G1 F1800 X96.352 Y98.049 E208.89628
G0 F3600 X96.171 Y98.434
G1 F1800 X81.169 Y83.432 E209.95475
G0 F3600 X81.169 Y83.997
G1 F1800 X96.022 Y98.85 E211.00271
G0 F3600 X95.924 Y99.318
G1 F1800 X81.169 Y84.563 E212.04375
G0 F3600 X81.169 Y85.129
G1 F1800 X95.867 Y99.827 E213.08078
G0 F3600 X95.88 Y100.405
G1 F1800 X81.169 Y85.694 E214.11872
G0 F3600 X81.169 Y86.26
G1 F1800 X96.029 Y101.12 E215.16717
G1 X96.099 Y101.19
G0 F3600 X96.683 Y102.34
G1 F1800 X81.169 Y86.826 E216.26177
G0 F3600 X81.169 Y87.392
G1 F1800 X118.83 Y125.052 E218.91892
G0 F3600 X118.83 Y125.618
G1 F1800 X81.169 Y87.957 E221.57611
G0 F3600 X81.169 Y88.523
G1 F1800 X118.83 Y126.183 E224.23326
G0 F3600 X118.83 Y126.749
G1 F1800 X81.169 Y89.089 E226.89041
G0 F3600 X81.169 Y89.654
G1 F1800 X118.83 Y127.315 E229.5476
G0 F3600 X118.83 Y127.88
G1 F1800 X81.169 Y90.22 E232.20475
G0 F3600 X81.169 Y90.786
G1 F1800 X118.83 Y128.446 E234.8619
G0 F3600 X118.83 Y129.012
G1 F1800 X81.169 Y91.351 E237.51909
G0 F3600 X81.169 Y91.917
G1 F1800 X118.83 Y129.578 E240.17627
G0 F3600 X118.83 Y130.143
G1 F1800 X81.169 Y92.483 E242.83343
G0 F3600 X81.169 Y93.048
G1 F1800 X118.83 Y130.709 E245.49061
G0 F3600 X118.83 Y131.275
G1 F1800 X81.169 Y93.614 E248.1478
G0 F3600 X81.169 Y94.18
G1 F1800 X118.83 Y131.84 E250.80495
G0 F3600 X118.83 Y132.406
G1 F1800 X81.169 Y94.745 E253.46214
G0 F3600 X81.169 Y95.311
G1 F1800 X118.83 Y132.972 E256.11932
G0 F3600 X118.83 Y133.537
G1 F1800 X81.169 Y95.877 E258.77648
G0 F3600 X81.169 Y96.443
G1 F1800 X118.555 Y133.829 E261.41426
G0 F3600 X117.989 Y133.829
G1 F1800 X81.169 Y97.008 E264.01215
G0 F3600 X81.169 Y97.574
G1 F1800 X117.424 Y133.829 E266.57013
G0 F3600 X116.858 Y133.829
G1 F1800 X81.169 Y98.14 E269.08818
G0 F3600 X81.169 Y98.705
G1 F1800 X116.292 Y133.829 E271.56634
G0 F3600 X115.727 Y133.829
G1 F1800 X81.169 Y99.271 E274.00459
G0 F3600 X81.169 Y99.837
G1 F1800 X115.161 Y133.829 E276.40291
G0 F3600 X114.595 Y133.829
G1 F1800 X81.169 Y100.402 E278.76133
G0 F3600 X81.169 Y100.968
G1 F1800 X114.03 Y133.829 E281.07985
G0 F3600 X113.464 Y133.829
G1 F1800 X81.169 Y101.534 E283.35844
G0 F3600 X81.169 Y102.099
G1 F1800 X112.898 Y133.829 E285.59712
G0 F3600 X112.333 Y133.829
