;FLAVOR:Marlin
;TIME:2608
;Filament used: 1.66361m
;Layer height: 0.1
;MINX:73.04
;MINY:69.626
;MINZ:0.3
;MAXX:126.958
;MAXY:128.02
;MAXZ:6
;Generated with Cura_SteamEngine 4.2.1
M140 S60
M105
M190 S60
M104 S205
M105
M109 S205
M82 ;absolute extrusion mode
G21 ;metric values
 G90 ;absolute positioning
 M82 ;set extruder to absolute mode
 M107 ;start with the fan off
 G28 X0 Y0 ;move X/Y to min endstops
 G28 Z0 ;move Z to min endstops
 G1 Z15.0 F120 ;move the platform down 15mm
 G92 E0 ;zero the extruded length
 G1 F200 E6 ;extrude 6 mm of feed stock
 G92 E0 ;zero the extruded length again
 G1 F120 
 ;Put printing message on LCD screen
 M117 Printing...
M141 S28
G92 E0
G92 E0
G1 F1500 E-6.5
;LAYER_COUNT:58
;LAYER:0
M107
G0 F3600 X84.592 Y79.518 Z0.3
;TYPE:SKIRT
G1 F1500 E0
G1 F1800 X85.237 Y78.837 E0.07019
G1 X85.38 Y78.69 E0.08554
G1 X86.043 Y78.026 E0.15576
G1 X86.187 Y77.886 E0.17079
G1 X86.866 Y77.24 E0.24093
G1 X87.017 Y77.1 E0.25634
G1 X87.713 Y76.472 E0.32649
G1 X87.867 Y76.336 E0.34187
G1 X88.58 Y75.726 E0.41209
G1 X88.731 Y75.601 E0.42676
G1 X89.458 Y75.01 E0.49687
G1 X89.629 Y74.874 E0.51322
G1 X90.373 Y74.303 E0.58341
G1 X90.53 Y74.186 E0.59806
G1 X91.288 Y73.634 E0.66823
G1 X91.454 Y73.516 E0.68347
G1 X92.226 Y72.984 E0.75363
G1 X92.395 Y72.871 E0.76885
G1 X93.181 Y72.359 E0.83905
G1 X93.364 Y72.244 E0.85522
G1 X94.164 Y71.754 E0.92543
G1 X94.333 Y71.653 E0.94016
G1 X95.144 Y71.184 E1.01027
G1 X95.32 Y71.085 E1.02538
G1 X96.145 Y70.636 E1.09567
G1 X96.32 Y70.544 E1.11047
G1 X96.447 Y70.479 E1.12115
G1 X97.168 Y70.155 E1.1803
G1 X97.917 Y69.906 E1.23937
G1 X98.688 Y69.733 E1.2985
G1 X99.472 Y69.64 E1.35758
G1 X100.261 Y69.626 E1.41664
G1 X101.048 Y69.693 E1.47574
G1 X101.824 Y69.838 E1.53482
G1 X102.582 Y70.061 E1.59395
G1 X103.313 Y70.36 E1.65305
G1 X103.7 Y70.555 E1.68548
G1 X104.526 Y71 E1.7557
G1 X104.709 Y71.101 E1.77134
G1 X105.523 Y71.568 E1.84157
G1 X105.691 Y71.668 E1.8562
G1 X106.491 Y72.154 E1.92625
G1 X106.669 Y72.266 E1.94199
G1 X107.458 Y72.775 E2.01225
G1 X107.631 Y72.889 E2.02776
G1 X108.405 Y73.418 E2.09792
G1 X108.571 Y73.535 E2.11312
G1 X109.331 Y74.084 E2.18328
G1 X109.498 Y74.208 E2.19884
G1 X110.243 Y74.777 E2.269
G1 X110.393 Y74.894 E2.28323
G1 X111.124 Y75.481 E2.35339
G1 X111.292 Y75.62 E2.36971
G1 X112.006 Y76.227 E2.43984
G1 X112.162 Y76.363 E2.45533
G1 X112.86 Y76.989 E2.52549
G1 X113.003 Y77.121 E2.54006
G1 X113.686 Y77.765 E2.61031
G1 X113.838 Y77.912 E2.62613
G1 X114.503 Y78.574 E2.69635
G1 X114.639 Y78.713 E2.71091
G1 X115.286 Y79.39 E2.78099
G1 X115.426 Y79.54 E2.79634
G1 X116.056 Y80.235 E2.86654
G1 X116.197 Y80.395 E2.8825
G1 X116.807 Y81.106 E2.95261
G1 X116.931 Y81.255 E2.96711
G1 X117.524 Y81.982 E3.03732
G1 X117.661 Y82.154 E3.05378
G1 X118.233 Y82.897 E3.12395
G1 X118.346 Y83.048 E3.13806
G1 X118.9 Y83.805 E3.20826
G1 X119.025 Y83.98 E3.22436
G1 X119.558 Y84.752 E3.29456
G1 X119.668 Y84.917 E3.3094
G1 X120.181 Y85.702 E3.37958
G1 X120.292 Y85.875 E3.39496
G1 X120.784 Y86.673 E3.46512
G1 X120.891 Y86.852 E3.48072
G1 X121.361 Y87.662 E3.55081
G1 X121.46 Y87.838 E3.56592
G1 X121.91 Y88.662 E3.63618
G1 X122.005 Y88.843 E3.65148
G1 X122.433 Y89.678 E3.72169
G1 X122.521 Y89.855 E3.73649
G1 X122.927 Y90.699 E3.80658
G1 X123.018 Y90.894 E3.82268
G1 X123.401 Y91.75 E3.89286
G1 X123.479 Y91.932 E3.90768
G1 X123.84 Y92.797 E3.97782
G1 X123.912 Y92.976 E3.99226
G1 X124.252 Y93.851 E4.06251
G1 X124.331 Y94.063 E4.07944
G1 X124.645 Y94.946 E4.14957
G1 X124.708 Y95.13 E4.16413
G1 X125 Y96.021 E4.2343
G1 X125.062 Y96.219 E4.24982
G1 X125.33 Y97.117 E4.31995
G1 X125.385 Y97.31 E4.33497
G1 X125.63 Y98.215 E4.40513
G1 X125.682 Y98.416 E4.42067
G1 X125.903 Y99.328 E4.4909
G1 X125.945 Y99.511 E4.50495
G1 X126.144 Y100.428 E4.57517
G1 X126.19 Y100.658 E4.59272
G1 X126.361 Y101.579 E4.66282
G1 X126.393 Y101.763 E4.6768
G1 X126.542 Y102.688 E4.74691
G1 X126.571 Y102.889 E4.76211
G1 X126.696 Y103.819 E4.83234
G1 X126.721 Y104.018 E4.84734
G1 X126.822 Y104.95 E4.9175
G1 X126.844 Y105.192 E4.93568
G1 X126.937 Y106.402 E5.0265
G1 X126.958 Y107.192 E5.08564
G1 X126.898 Y107.979 E5.14471
G1 X126.76 Y108.757 E5.20384
G1 X126.543 Y109.516 E5.26292
G1 X126.251 Y110.25 E5.32203
G1 X125.886 Y110.95 E5.38111
G1 X125.452 Y111.61 E5.44022
G1 X124.954 Y112.222 E5.49927
G1 X124.396 Y112.781 E5.55838
G1 X123.785 Y113.281 E5.61746
G1 X123.126 Y113.717 E5.67659
G1 X122.426 Y114.083 E5.73571
G1 X121.812 Y114.329 E5.78521
G1 X121.792 Y114.551 E5.80189
G1 X121.642 Y115.326 E5.86096
G1 X121.415 Y116.082 E5.92003
G1 X121.112 Y116.811 E5.97911
G1 X120.737 Y117.506 E6.03821
G1 X120.293 Y118.16 E6.09736
G1 X119.786 Y118.765 E6.15644
G1 X119.22 Y119.316 E6.21555
G1 X118.602 Y119.807 E6.27462
G1 X117.937 Y120.233 E6.33372
G1 X117.232 Y120.589 E6.39282
G1 X116.653 Y120.818 E6.43942
G1 X115.773 Y121.127 E6.50921
G1 X115.596 Y121.187 E6.5232
G1 X114.702 Y121.477 E6.59354
G1 X114.534 Y121.53 E6.60672
G1 X113.633 Y121.8 E6.67711
G1 X113.469 Y121.847 E6.68987
G1 X112.563 Y122.097 E6.76021
G1 X112.38 Y122.145 E6.77437
G1 X111.468 Y122.373 E6.84472
G1 X111.303 Y122.412 E6.85741
G1 X110.387 Y122.62 E6.9277
G1 X110.204 Y122.66 E6.94172
G1 X109.339 Y122.835 E7.00776
G1 X109.169 Y123.293 E7.04432
G1 X108.821 Y124.002 E7.10343
G1 X108.403 Y124.673 E7.16259
G1 X107.92 Y125.297 E7.22164
G1 X107.377 Y125.87 E7.28072
G1 X106.778 Y126.385 E7.33983
G1 X106.13 Y126.836 E7.39891
G1 X105.439 Y127.22 E7.45807
G1 X104.714 Y127.532 E7.51714
G1 X103.961 Y127.769 E7.57622
G1 X103.187 Y127.928 E7.63535
G1 X102.402 Y128.009 E7.69441
G1 X102.002 Y128.019 E7.72435
G1 X98.002 Y128.02 E8.02369
G1 X97.213 Y127.98 E8.08281
G1 X96.433 Y127.861 E8.14186
G1 X95.668 Y127.663 E8.20099
G1 X94.927 Y127.389 E8.26012
G1 X94.218 Y127.042 E8.31919
G1 X93.548 Y126.625 E8.37825
G1 X92.923 Y126.142 E8.43736
G1 X92.35 Y125.598 E8.49649
G1 X91.836 Y124.999 E8.55555
G1 X91.384 Y124.351 E8.61468
G1 X91 Y123.661 E8.67377
G1 X90.688 Y122.936 E8.73284
G1 X90.653 Y122.824 E8.74162
G1 X89.963 Y122.686 E8.79428
G1 X89.777 Y122.647 E8.8085
G1 X88.862 Y122.441 E8.87869
G1 X88.691 Y122.4 E8.89185
G1 X87.779 Y122.173 E8.96218
G1 X87.625 Y122.133 E8.97409
G1 X86.72 Y121.888 E9.04425
G1 X86.532 Y121.835 E9.05887
G1 X85.632 Y121.567 E9.12914
G1 X85.477 Y121.519 E9.14129
G1 X84.585 Y121.233 E9.21139
G1 X84.403 Y121.172 E9.22575
G1 X83.515 Y120.863 E9.29611
G1 X83.301 Y120.785 E9.31316
G1 X83.175 Y120.737 E9.32325
G1 X82.452 Y120.419 E9.38236
G1 X81.766 Y120.029 E9.44141
G1 X81.122 Y119.572 E9.50051
G1 X80.527 Y119.052 E9.55964
G1 X79.988 Y118.475 E9.61873
G1 X79.51 Y117.846 E9.67785
G1 X79.099 Y117.173 E9.73686
G1 X78.757 Y116.461 E9.79598
G1 X78.49 Y115.718 E9.85506
G1 X78.298 Y114.951 E9.91423
G1 X78.21 Y114.343 E9.9602
G1 X78.206 Y114.342 E9.96051
G1 X77.477 Y114.038 E10.01962
G1 X76.783 Y113.662 E10.07869
G1 X76.13 Y113.217 E10.13782
G1 X75.525 Y112.709 E10.19694
G1 X74.975 Y112.143 E10.256
G1 X74.486 Y111.523 E10.3151
G1 X74.061 Y110.858 E10.37416
G1 X73.705 Y110.152 E10.43333
G1 X73.423 Y109.415 E10.49238
G1 X73.217 Y108.653 E10.55145
G1 X73.089 Y107.873 E10.6106
G1 X73.04 Y107.085 E10.66969
G1 X73.061 Y106.426 E10.71903
G1 X73.14 Y105.356 E10.79932
G1 X73.16 Y105.13 E10.8163
G1 X73.256 Y104.199 E10.88634
G1 X73.28 Y103.994 E10.90179
G1 X73.401 Y103.063 E10.97205
G1 X73.43 Y102.861 E10.98732
G1 X73.575 Y101.935 E11.05746
G1 X73.61 Y101.729 E11.0731
G1 X73.78 Y100.806 E11.14333
G1 X73.818 Y100.614 E11.15798
G1 X74.011 Y99.696 E11.22818
G1 X74.056 Y99.494 E11.24367
G1 X74.273 Y98.583 E11.31375
G1 X74.325 Y98.377 E11.32965
G1 X74.567 Y97.471 E11.39983
G1 X74.621 Y97.281 E11.41461
G1 X74.886 Y96.381 E11.48482
G1 X74.945 Y96.187 E11.49999
G1 X75.233 Y95.295 E11.57014
G1 X75.3 Y95.099 E11.58564
G1 X75.612 Y94.214 E11.65586
G1 X75.683 Y94.021 E11.67125
G1 X76.018 Y93.145 E11.74144
G1 X76.092 Y92.958 E11.75649
G1 X76.449 Y92.092 E11.82659
G1 X76.53 Y91.903 E11.84198
G1 X76.91 Y91.046 E11.91213
G1 X76.997 Y90.857 E11.9277
G1 X77.4 Y90.01 E11.9979
G1 X77.49 Y89.826 E12.01323
G1 X77.915 Y88.99 E12.08341
G1 X78.006 Y88.816 E12.0981
G1 X78.452 Y87.991 E12.16829
G1 X78.558 Y87.802 E12.1845
G1 X79.027 Y86.989 E12.25474
G1 X79.122 Y86.829 E12.26867
G1 X79.61 Y86.028 E12.33886
G1 X79.72 Y85.852 E12.35439
G1 X80.228 Y85.066 E12.42443
G1 X80.351 Y84.882 E12.44099
G1 X80.883 Y84.108 E12.51128
G1 X80.995 Y83.949 E12.52583
G1 X81.545 Y83.19 E12.59597
G1 X81.666 Y83.027 E12.61117
G1 X82.236 Y82.282 E12.68137
G1 X82.36 Y82.125 E12.69634
G1 X82.948 Y81.396 E12.76643
G1 X83.089 Y81.226 E12.78296
G1 X83.699 Y80.512 E12.85323
G1 X83.826 Y80.367 E12.86766
G1 X84.452 Y79.67 E12.93777
G1 X84.592 Y79.518 E12.95323
G0 F3600 X84.882 Y79.793
G1 F1800 X85.527 Y79.112 E13.02342
G1 X85.663 Y78.972 E13.03803
G1 X86.326 Y78.308 E13.10825
G1 X86.462 Y78.176 E13.12243
G1 X87.141 Y77.53 E13.19257
G1 X87.285 Y77.397 E13.20724
G1 X87.981 Y76.769 E13.27739
G1 X88.127 Y76.64 E13.29197
G1 X88.84 Y76.03 E13.36219
G1 X88.983 Y75.911 E13.37612
G1 X89.71 Y75.32 E13.44623
G1 X89.873 Y75.192 E13.46174
G1 X90.617 Y74.621 E13.53193
G1 X90.766 Y74.509 E13.54587
G1 X91.524 Y73.957 E13.61605
G1 X91.681 Y73.846 E13.63044
G1 X92.453 Y73.314 E13.7006
G1 X92.613 Y73.206 E13.71504
G1 X93.399 Y72.694 E13.78524
G1 X93.573 Y72.585 E13.80061
G1 X94.373 Y72.095 E13.87081
G1 X94.533 Y71.999 E13.88478
G1 X95.344 Y71.53 E13.95489
G1 X95.512 Y71.436 E13.96929
G1 X96.337 Y70.987 E14.03958
G1 X96.503 Y70.9 E14.05361
G1 X96.63 Y70.835 E14.06429
G1 X97.331 Y70.52 E14.1218
G1 X98.062 Y70.28 E14.17938
G1 X98.814 Y70.118 E14.23694
G1 X99.579 Y70.034 E14.29454
G1 X100.348 Y70.03 E14.35209
G1 X101.113 Y70.106 E14.40962
G1 X101.867 Y70.261 E14.46722
G1 X102.6 Y70.493 E14.52476
G1 X103.511 Y70.907 E14.59964
G1 X104.337 Y71.352 E14.66986
G1 X104.509 Y71.448 E14.6846
G1 X105.323 Y71.915 E14.75483
G1 X105.483 Y72.01 E14.76875
G1 X106.283 Y72.496 E14.8388
G1 X106.453 Y72.602 E14.85379
G1 X107.242 Y73.111 E14.92406
G1 X107.406 Y73.22 E14.9388
G1 X108.18 Y73.749 E15.00896
G1 X108.337 Y73.859 E15.0233
G1 X109.097 Y74.408 E15.09346
G1 X109.256 Y74.526 E15.10828
G1 X110.001 Y75.095 E15.17843
G1 X110.142 Y75.206 E15.19186
G1 X110.873 Y75.793 E15.26202
G1 X111.033 Y75.925 E15.27754
G1 X111.747 Y76.532 E15.34768
G1 X111.895 Y76.661 E15.36237
G1 X112.593 Y77.287 E15.43253
G1 X112.729 Y77.412 E15.44636
G1 X113.412 Y78.056 E15.51661
G1 X113.556 Y78.196 E15.53164
G1 X114.221 Y78.858 E15.60186
G1 X114.35 Y78.989 E15.61562
G1 X114.997 Y79.666 E15.6857
G1 X115.13 Y79.809 E15.70031
G1 X115.76 Y80.504 E15.77051
G1 X115.893 Y80.656 E15.78562
G1 X116.503 Y81.367 E15.85573
G1 X116.621 Y81.508 E15.86949
G1 X117.214 Y82.235 E15.9397
G1 X117.344 Y82.398 E15.9553
G1 X117.916 Y83.141 E16.02547
G1 X118.024 Y83.285 E16.03894
G1 X118.578 Y84.042 E16.10914
G1 X118.696 Y84.208 E16.12438
G1 X119.229 Y84.98 E16.19459
G1 X119.334 Y85.136 E16.20866
G1 X119.847 Y85.921 E16.27884
G1 X119.951 Y86.085 E16.29337
G1 X120.443 Y86.883 E16.36353
G1 X120.545 Y87.053 E16.37837
G1 X121.015 Y87.863 E16.44845
G1 X121.109 Y88.03 E16.46279
G1 X121.559 Y88.854 E16.53305
G1 X121.649 Y89.026 E16.54758
G1 X122.077 Y89.861 E16.61779
G1 X122.161 Y90.028 E16.63178
G1 X122.567 Y90.872 E16.70187
G1 X122.653 Y91.058 E16.71721
G1 X123.036 Y91.914 E16.78739
G1 X123.11 Y92.086 E16.8014
G1 X123.471 Y92.951 E16.87154
G1 X123.54 Y93.121 E16.88527
G1 X123.88 Y93.996 E16.95552
G1 X123.954 Y94.197 E16.97155
G1 X124.268 Y95.08 E17.04169
G1 X124.328 Y95.254 E17.05546
G1 X124.62 Y96.145 E17.12563
G1 X124.679 Y96.334 E17.14044
G1 X124.947 Y97.232 E17.21057
G1 X124.999 Y97.414 E17.22474
G1 X125.244 Y98.319 E17.2949
G1 X125.293 Y98.51 E17.30966
G1 X125.514 Y99.422 E17.37989
G1 X125.554 Y99.596 E17.39325
G1 X125.753 Y100.513 E17.46347
G1 X125.797 Y100.731 E17.48011
G1 X125.968 Y101.652 E17.55021
G1 X125.998 Y101.826 E17.56343
G1 X126.147 Y102.751 E17.63354
G1 X126.175 Y102.942 E17.64799
G1 X126.3 Y103.872 E17.71821
G1 X126.323 Y104.061 E17.73246
G1 X126.424 Y104.993 E17.80261
G1 X126.445 Y105.223 E17.8199
G1 X126.538 Y106.433 E17.91071
G1 X126.557 Y107.202 E17.96828
G1 X126.496 Y107.969 E18.02586
G1 X126.356 Y108.725 E18.0834
G1 X126.138 Y109.462 E18.14091
G1 X125.845 Y110.174 E18.19853
G1 X125.479 Y110.85 E18.25606
G1 X125.046 Y111.485 E18.31358
G1 X124.548 Y112.072 E18.37118
G1 X123.993 Y112.604 E18.42872
G1 X123.385 Y113.075 E18.48627
G1 X122.731 Y113.481 E18.54388
G1 X122.039 Y113.817 E18.60144
G1 X121.438 Y114.035 E18.64929
G1 X121.39 Y114.534 E18.6868
G1 X121.239 Y115.288 E18.74435
G1 X121.011 Y116.023 E18.80194
G1 X120.707 Y116.729 E18.85946
G1 X120.332 Y117.401 E18.91705
G1 X119.889 Y118.03 E18.97463
G1 X119.383 Y118.609 E19.03217
G1 X118.82 Y119.133 E19.08973
G1 X118.205 Y119.595 E19.14729
G1 X117.546 Y119.991 E19.20483
G1 X116.521 Y120.441 E19.2886
G1 X115.641 Y120.75 E19.3584
G1 X115.472 Y120.807 E19.37174
G1 X114.578 Y121.097 E19.44208
G1 X114.419 Y121.147 E19.45455
G1 X113.518 Y121.417 E19.52494
G1 X113.362 Y121.461 E19.53707
G1 X112.456 Y121.711 E19.60741
G1 X112.283 Y121.757 E19.6208
G1 X111.371 Y121.985 E19.69115
G1 X111.215 Y122.022 E19.70315
G1 X110.299 Y122.23 E19.77344
G1 X110.125 Y122.268 E19.78677
G1 X109.204 Y122.454 E19.85709
G1 X109.046 Y122.484 E19.86912
G1 X109.045 Y122.484 E19.8692
G1 X109.043 Y122.49 E19.86967
G1 X108.769 Y123.209 E19.92725
G1 X108.422 Y123.895 E19.98478
G1 X108.006 Y124.542 E20.04235
G1 X107.525 Y125.142 E20.09989
G1 X106.984 Y125.689 E20.15747
G1 X106.389 Y126.177 E20.21506
G1 X105.747 Y126.6 E20.27259
G1 X105.064 Y126.955 E20.3302
G1 X104.349 Y127.236 E20.38769
G1 X103.607 Y127.442 E20.44532
G1 X102.849 Y127.57 E20.50284
G1 X102.002 Y127.619 E20.56633
G1 X98.002 Y127.62 E20.86568
G1 X97.234 Y127.58 E20.92323
G1 X96.474 Y127.461 E20.9808
G1 X95.731 Y127.263 E21.03834
G1 X95.012 Y126.99 E21.09589
G1 X94.325 Y126.643 E21.15349
G1 X93.678 Y126.227 E21.21105
G1 X93.078 Y125.746 E21.2686
G1 X92.531 Y125.205 E21.32618
G1 X92.043 Y124.61 E21.38376
G1 X91.62 Y123.968 E21.4413
G1 X91.265 Y123.286 E21.49884
G1 X90.983 Y122.57 E21.55643
G1 X90.957 Y122.477 E21.56365
G1 X90.042 Y122.294 E21.63348
G1 X89.865 Y122.256 E21.64703
G1 X88.95 Y122.05 E21.71722
G1 X88.788 Y122.012 E21.72967
G1 X87.876 Y121.785 E21.8
G1 X87.729 Y121.747 E21.81137
G1 X86.824 Y121.502 E21.88153
G1 X86.646 Y121.451 E21.89539
G1 X85.746 Y121.183 E21.96566
G1 X85.599 Y121.138 E21.97717
G1 X84.707 Y120.852 E22.04727
G1 X84.534 Y120.794 E22.06092
G1 X83.646 Y120.485 E22.13128
G1 X83.444 Y120.411 E22.14738
G1 X83.318 Y120.363 E22.15747
G1 X82.614 Y120.052 E22.21507
G1 X81.947 Y119.67 E22.27259
G1 X81.322 Y119.221 E22.33018
G1 X80.748 Y118.709 E22.38774
G1 X80.23 Y118.141 E22.44527
G1 X79.774 Y117.521 E22.50286
G1 X79.385 Y116.858 E22.56039
G1 X79.066 Y116.158 E22.61796
G1 X78.822 Y115.428 E22.67556
G1 X78.655 Y114.678 E22.73306
G1 X78.581 Y114.037 E22.78135
G1 X78.303 Y113.952 E22.8031
G1 X77.596 Y113.651 E22.86061
G1 X76.923 Y113.278 E22.91819
G1 X76.292 Y112.838 E22.97576
G1 X75.711 Y112.334 E23.03332
G1 X75.185 Y111.773 E23.09087
G1 X74.72 Y111.16 E23.14844
G1 X74.321 Y110.502 E23.20603
G1 X73.993 Y109.807 E23.26354
G1 X73.739 Y109.081 E23.3211
G1 X73.561 Y108.333 E23.37864
G1 X73.462 Y107.57 E23.43622
G1 X73.46 Y106.455 E23.51966
G1 X73.539 Y105.385 E23.59995
G1 X73.558 Y105.171 E23.61603
G1 X73.654 Y104.24 E23.68607
G1 X73.677 Y104.045 E23.70077
G1 X73.798 Y103.114 E23.77103
G1 X73.825 Y102.923 E23.78546
G1 X73.97 Y101.997 E23.8556
G1 X74.003 Y101.802 E23.8704
G1 X74.173 Y100.879 E23.94064
G1 X74.209 Y100.697 E23.95452
G1 X74.402 Y99.779 E24.02472
G1 X74.445 Y99.586 E24.03952
G1 X74.662 Y98.675 E24.1096
G1 X74.712 Y98.48 E24.12467
G1 X74.954 Y97.574 E24.19484
G1 X75.004 Y97.394 E24.20883
G1 X75.269 Y96.494 E24.27904
G1 X75.326 Y96.31 E24.29345
G1 X75.614 Y95.418 E24.3636
G1 X75.677 Y95.232 E24.37829
G1 X75.989 Y94.347 E24.44852
G1 X76.056 Y94.164 E24.4631
G1 X76.391 Y93.288 E24.53329
G1 X76.462 Y93.111 E24.54756
G1 X76.819 Y92.245 E24.61766
G1 X76.895 Y92.065 E24.63228
G1 X77.275 Y91.208 E24.70244
G1 X77.358 Y91.029 E24.7172
G1 X77.761 Y90.182 E24.7874
G1 X77.846 Y90.008 E24.80189
