;FLAVOR:Marlin
;TIME:16023
;Filament used: 14.023m
;Layer height: 0.15
;MINX:30.951
;MINY:37.95
;MINZ:0.15
;MAXX:169.048
;MAXY:162.05
;MAXZ:9.9
;Generated with Cura_SteamEngine 4.2.1
M140 S60
M105
M190 S60
M104 S205
M105
M109 S205
M82 ;absolute extrusion mode
G21 ;metric values
 G90 ;absolute positioning
 M82 ;set extruder to absolute mode
 M107 ;start with the fan off
 G28 X0 Y0 ;move X/Y to min endstops
 G28 Z0 ;move Z to min endstops
 G1 Z15.0 F120 ;move the platform down 15mm
 G92 E0 ;zero the extruded length
 G1 F200 E6 ;extrude 6 mm of feed stock
 G92 E0 ;zero the extruded length again
 G1 F120 
 ;Put printing message on LCD screen
 M117 Printing...
M141 S28
G92 E0
G92 E0
G1 F1500 E-6.5
;LAYER_COUNT:66
;LAYER:0
M107
G0 F3600 X33.973 Y39.584 Z0.15
;TYPE:SKIRT
G1 F1500 E0
G1 F1800 X34.621 Y39.133 E0.02954
G1 X35.312 Y38.749 E0.05912
G1 X36.037 Y38.437 E0.08865
G1 X36.79 Y38.2 E0.11819
G1 X37.564 Y38.041 E0.14776
G1 X38.349 Y37.96 E0.17729
G1 X38.754 Y37.95 E0.19245
G1 X46.734 Y37.953 E0.49104
G1 X103.712 Y37.95 E2.62302
G1 X161.248 Y37.95 E4.77588
G1 X162.036 Y37.99 E4.80541
G1 X162.817 Y38.109 E4.83497
G1 X163.581 Y38.307 E4.8645
G1 X164.322 Y38.581 E4.89406
G1 X165.031 Y38.929 E4.92361
G1 X165.701 Y39.346 E4.95314
G1 X166.326 Y39.829 E4.9827
G1 X166.899 Y40.373 E5.01226
G1 X167.413 Y40.972 E5.04179
G1 X167.865 Y41.62 E5.07136
G1 X168.249 Y42.31 E5.1009
G1 X168.56 Y43.036 E5.13046
G1 X168.797 Y43.789 E5.15999
G1 X168.957 Y44.562 E5.18953
G1 X169.038 Y45.348 E5.2191
G1 X169.048 Y45.75 E5.23414
G1 X169.048 Y154.25 E9.29396
G1 X169.008 Y155.039 E9.32352
G1 X168.889 Y155.819 E9.35304
G1 X168.691 Y156.584 E9.38261
G1 X168.417 Y157.324 E9.41214
G1 X168.069 Y158.033 E9.44169
G1 X167.651 Y158.704 E9.47127
G1 X167.168 Y159.328 E9.5008
G1 X166.625 Y159.901 E9.53033
G1 X166.026 Y160.416 E9.55989
G1 X165.378 Y160.867 E9.58943
G1 X164.687 Y161.251 E9.61901
G1 X163.962 Y161.563 E9.64855
G1 X163.209 Y161.8 E9.67808
G1 X162.435 Y161.959 E9.70765
G1 X161.65 Y162.04 E9.73718
G1 X161.248 Y162.05 E9.75223
G1 X43.713 Y162.05 E14.15011
G1 X43.165 Y162.031 E14.17063
G1 X42.512 Y161.985 E14.19512
G1 X41.57 Y161.86 E14.23068
G1 X41.051 Y161.759 E14.25046
G1 X40.28 Y161.568 E14.28018
G1 X39.788 Y161.419 E14.29942
G1 X39.024 Y161.144 E14.3298
G1 X38.551 Y160.945 E14.349
G1 X37.804 Y160.583 E14.38006
G1 X37.346 Y160.33 E14.39964
G1 X36.665 Y159.906 E14.42966
G1 X36.235 Y159.607 E14.44925
G1 X35.587 Y159.104 E14.47995
G1 X35.181 Y158.753 E14.50003
G1 X34.564 Y158.157 E14.53213
G1 X34.192 Y157.756 E14.5526
G1 X33.687 Y157.153 E14.58203
G1 X33.384 Y156.752 E14.60083
G1 X32.925 Y156.074 E14.63147
G1 X32.654 Y155.624 E14.65112
G1 X32.24 Y154.838 E14.68436
G1 X31.989 Y154.288 E14.70699
G1 X31.662 Y153.445 E14.74082
G1 X31.501 Y152.946 E14.76044
G1 X31.296 Y152.182 E14.79004
G1 X31.178 Y151.63 E14.81116
G1 X31.045 Y150.778 E14.84342
G1 X30.995 Y150.28 E14.86215
G1 X30.956 Y149.525 E14.89044
G1 X30.951 Y147.879 E14.95203
G1 X30.951 Y45.75 E18.77346
G1 X30.991 Y44.961 E18.80302
G1 X31.11 Y44.181 E18.83254
G1 X31.308 Y43.416 E18.86211
G1 X31.582 Y42.676 E18.89163
G1 X31.93 Y41.967 E18.92119
G1 X32.348 Y41.296 E18.95077
G1 X32.831 Y40.672 E18.98029
G1 X33.374 Y40.099 E19.00983
G1 X33.973 Y39.584 E19.03939
G0 F3600 X34.362 Y39.792
G1 F1800 X35.004 Y39.369 E19.06816
G1 X35.687 Y39.014 E19.09696
G1 X36.402 Y38.733 E19.1257
G1 X37.144 Y38.527 E19.15452
G1 X37.902 Y38.399 E19.18328
G1 X38.754 Y38.35 E19.21521
G1 X46.734 Y38.353 E19.51381
G1 X103.712 Y38.35 E21.64579
G1 X161.248 Y38.35 E23.79865
G1 X162.016 Y38.39 E23.82743
G1 X162.776 Y38.509 E23.85621
G1 X163.519 Y38.707 E23.88498
G1 X164.238 Y38.981 E23.91377
G1 X164.924 Y39.328 E23.94254
G1 X165.571 Y39.744 E23.97132
G1 X166.171 Y40.225 E24.0001
G1 X166.718 Y40.766 E24.02888
G1 X167.206 Y41.361 E24.05768
G1 X167.629 Y42.003 E24.08644
G1 X167.984 Y42.685 E24.11521
G1 X168.265 Y43.401 E24.14399
G1 X168.471 Y44.142 E24.17277
G1 X168.599 Y44.901 E24.20157
G1 X168.648 Y45.75 E24.23339
G1 X168.648 Y154.25 E28.29321
G1 X168.608 Y155.018 E28.32198
G1 X168.489 Y155.778 E28.35077
G1 X168.291 Y156.521 E28.37954
G1 X168.017 Y157.24 E28.40833
G1 X167.67 Y157.926 E28.4371
G1 X167.254 Y158.573 E28.46588
G1 X166.773 Y159.173 E28.49465
G1 X166.232 Y159.72 E28.52344
G1 X165.637 Y160.208 E28.55223
G1 X164.995 Y160.631 E28.581
G1 X164.312 Y160.986 E28.6098
G1 X163.597 Y161.267 E28.63855
G1 X162.855 Y161.473 E28.66736
G1 X162.097 Y161.601 E28.69613
G1 X161.248 Y161.65 E28.72795
G1 X43.713 Y161.65 E33.12583
G1 X43.193 Y161.632 E33.1453
G1 X42.54 Y161.586 E33.16979
G1 X41.646 Y161.468 E33.20353
G1 X41.127 Y161.367 E33.22332
G1 X40.396 Y161.185 E33.25151
G1 X39.904 Y161.036 E33.27074
G1 X39.179 Y160.775 E33.29957
G1 X38.706 Y160.576 E33.31877
G1 X37.998 Y160.232 E33.34823
G1 X37.54 Y159.979 E33.36781
G1 X36.893 Y159.578 E33.39629
G1 X36.463 Y159.279 E33.41588
G1 X35.848 Y158.801 E33.44503
G1 X35.442 Y158.45 E33.46511
G1 X34.857 Y157.885 E33.49554
G1 X34.485 Y157.484 E33.51601
G1 X34.006 Y156.912 E33.54393
G1 X33.703 Y156.511 E33.56273
G1 X33.268 Y155.868 E33.59178
G1 X32.997 Y155.418 E33.61144
G1 X32.604 Y154.672 E33.64299
G1 X32.353 Y154.122 E33.66561
G1 X32.042 Y153.322 E33.69772
G1 X31.881 Y152.823 E33.71734
G1 X31.687 Y152.098 E33.74543
G1 X31.569 Y151.546 E33.76655
G1 X31.443 Y150.738 E33.79715
G1 X31.393 Y150.24 E33.81587
G1 X31.356 Y149.523 E33.84274
G1 X31.351 Y147.877 E33.90433
G1 X31.351 Y45.75 E37.72568
G1 X31.391 Y44.982 E37.75446
G1 X31.51 Y44.222 E37.78324
G1 X31.708 Y43.479 E37.81201
G1 X31.982 Y42.76 E37.8408
G1 X32.329 Y42.074 E37.86957
G1 X32.745 Y41.427 E37.89835
G1 X33.226 Y40.827 E37.92712
G1 X33.767 Y40.28 E37.95591
G1 X34.362 Y39.792 E37.9847
G0 F3600 X34.749 Y40.007
G1 F1800 X35.385 Y39.612 E38.01272
G1 X36.059 Y39.288 E38.0407
G1 X36.764 Y39.038 E38.06869
G1 X37.492 Y38.864 E38.0967
G1 X38.234 Y38.769 E38.12469
G1 X38.754 Y38.75 E38.14416
G1 X46.734 Y38.753 E38.44275
G1 X103.712 Y38.75 E40.57473
G1 X161.248 Y38.75 E42.72759
G1 X161.995 Y38.79 E42.75559
G1 X162.733 Y38.909 E42.78356
G1 X163.455 Y39.107 E42.81157
G1 X164.151 Y39.38 E42.83954
G1 X164.814 Y39.726 E42.86753
G1 X165.437 Y40.141 E42.89554
G1 X166.011 Y40.62 E42.92351
G1 X166.531 Y41.158 E42.95151
G1 X166.991 Y41.748 E42.9795
G1 X167.385 Y42.384 E43.00749
G1 X167.71 Y43.058 E43.03549
G1 X167.96 Y43.763 E43.06348
G1 X168.134 Y44.49 E43.09145
G1 X168.229 Y45.232 E43.11944
G1 X168.248 Y45.75 E43.13884
G1 X168.248 Y154.25 E47.19865
G1 X168.208 Y154.997 E47.22664
G1 X168.089 Y155.735 E47.25462
G1 X167.891 Y156.457 E47.28263
G1 X167.618 Y157.153 E47.3106
G1 X167.271 Y157.816 E47.3386
G1 X166.856 Y158.439 E47.36661
G1 X166.377 Y159.013 E47.39459
G1 X165.84 Y159.534 E47.42258
G1 X165.25 Y159.993 E47.45055
G1 X164.614 Y160.388 E47.47857
G1 X163.94 Y160.712 E47.50655
G1 X163.235 Y160.962 E47.53454
G1 X162.507 Y161.136 E47.56254
G1 X161.765 Y161.231 E47.59054
G1 X161.248 Y161.25 E47.60989
G1 X43.713 Y161.25 E52.00778
G1 X43.221 Y161.233 E52.0262
G1 X42.568 Y161.187 E52.05069
G1 X41.723 Y161.075 E52.08259
G1 X41.204 Y160.974 E52.10237
G1 X40.512 Y160.803 E52.12904
G1 X40.02 Y160.654 E52.14828
G1 X39.334 Y160.406 E52.17557
G1 X38.861 Y160.207 E52.19477
G1 X38.191 Y159.882 E52.22264
G1 X37.733 Y159.629 E52.24221
G1 X37.122 Y159.249 E52.26914
G1 X36.692 Y158.95 E52.28873
G1 X36.11 Y158.498 E52.31631
G1 X35.704 Y158.147 E52.33639
G1 X35.15 Y157.613 E52.36518
G1 X34.778 Y157.212 E52.38565
G1 X34.325 Y156.671 E52.41205
G1 X34.022 Y156.27 E52.43086
G1 X33.61 Y155.661 E52.45837
G1 X33.339 Y155.211 E52.47802
G1 X32.968 Y154.506 E52.50783
G1 X32.717 Y153.956 E52.53045
G1 X32.423 Y153.199 E52.56084
G1 X32.262 Y152.7 E52.58046
G1 X32.079 Y152.014 E52.60703
G1 X31.961 Y151.462 E52.62815
G1 X31.841 Y150.698 E52.65709
G1 X31.791 Y150.2 E52.67581
G1 X31.756 Y149.522 E52.70122
G1 X31.751 Y147.876 E52.76281
G1 X31.751 Y45.75 E56.58412
G1 X31.791 Y45.003 E56.61211
G1 X31.91 Y44.265 E56.64008
G1 X32.108 Y43.543 E56.6681
G1 X32.381 Y42.847 E56.69607
G1 X32.728 Y42.184 E56.72407
G1 X33.143 Y41.561 E56.75208
G1 X33.622 Y40.987 E56.78005
G1 X34.159 Y40.466 E56.80805
G1 X34.749 Y40.007 E56.83602
G0 F3600 X34.55 Y40.659
G1 F1800 X35.135 Y40.229 E56.86319
G1 X35.764 Y39.865 E56.89038
G1 X36.429 Y39.572 E56.91757
G1 X37.122 Y39.354 E56.94475
G1 X37.834 Y39.214 E56.9719
G1 X38.753 Y39.15 E57.00637
G1 X46.733 Y39.153 E57.30497
G1 X103.712 Y39.15 E59.43699
G1 X161.248 Y39.15 E61.58985
G1 X161.973 Y39.19 E61.61702
G1 X162.689 Y39.309 E61.64418
G1 X163.388 Y39.507 E61.67136
G1 X164.062 Y39.78 E61.69857
G1 X164.701 Y40.125 E61.72574
G1 X165.298 Y40.539 E61.75293
G1 X165.846 Y41.015 E61.78009
G1 X166.338 Y41.549 E61.80726
G1 X166.769 Y42.134 E61.83445
G1 X167.133 Y42.762 E61.86161
G1 X167.426 Y43.427 E61.8888
G1 X167.644 Y44.12 E61.91598
G1 X167.784 Y44.833 E61.94317
G1 X167.848 Y45.75 E61.97756
G1 X167.848 Y154.25 E66.03738
G1 X167.808 Y154.975 E66.06455
G1 X167.689 Y155.692 E66.09174
G1 X167.491 Y156.391 E66.11893
G1 X167.218 Y157.064 E66.1461
G1 X166.873 Y157.703 E66.17327
G1 X166.459 Y158.3 E66.20046
G1 X165.983 Y158.848 E66.22762
G1 X165.449 Y159.341 E66.25481
G1 X164.864 Y159.771 E66.28198
G1 X164.235 Y160.135 E66.30917
G1 X163.57 Y160.428 E66.33636
G1 X162.877 Y160.646 E66.36355
G1 X162.165 Y160.786 E66.3907
G1 X161.248 Y160.85 E66.42509
G1 X43.713 Y160.85 E70.82298
G1 X43.249 Y160.834 E70.84035
G1 X42.596 Y160.788 E70.86484
G1 X41.799 Y160.682 E70.89493
G1 X41.28 Y160.581 E70.91471
G1 X40.628 Y160.42 E70.93984
G1 X40.136 Y160.271 E70.95908
G1 X39.49 Y160.038 E70.98477
G1 X39.017 Y159.839 E71.00397
G1 X38.385 Y159.532 E71.03026
G1 X37.927 Y159.279 E71.04984
G1 X37.35 Y158.921 E71.07525
G1 X36.92 Y158.622 E71.09485
G1 X36.372 Y158.196 E71.12082
G1 X35.966 Y157.845 E71.1409
G1 X35.443 Y157.341 E71.16808
G1 X35.071 Y156.94 E71.18854
G1 X34.644 Y156.43 E71.21343
G1 X34.341 Y156.029 E71.23224
G1 X33.953 Y155.455 E71.25816
G1 X33.682 Y155.005 E71.27782
G1 X33.332 Y154.34 E71.30594
G1 X33.081 Y153.79 E71.32856
G1 X32.804 Y153.077 E71.35718
G1 X32.643 Y152.578 E71.3768
G1 X32.47 Y151.931 E71.40186
G1 X32.352 Y151.379 E71.42298
G1 X32.239 Y150.658 E71.45029
G1 X32.189 Y150.16 E71.46902
G1 X32.156 Y149.521 E71.49296
G1 X32.151 Y147.875 E71.55455
G1 X32.151 Y45.75 E75.37582
G1 X32.191 Y45.025 E75.40299
G1 X32.31 Y44.308 E75.43019
G1 X32.508 Y43.609 E75.45737
G1 X32.781 Y42.936 E75.48455
G1 X33.126 Y42.297 E75.51172
G1 X33.54 Y41.7 E75.5389
G1 X34.016 Y41.152 E75.56606
G1 X34.55 Y40.659 E75.59326
G0 F3600 X34.94 Y40.859
G1 F1800 X35.519 Y40.459 E75.61959
G1 X36.14 Y40.127 E75.64594
G1 X36.794 Y39.867 E75.67227
G1 X37.474 Y39.683 E75.69863
G1 X38.17 Y39.577 E75.72498
G1 X38.753 Y39.55 E75.74681
G1 X46.733 Y39.553 E76.04541
G1 X103.712 Y39.55 E78.17743
G1 X161.248 Y39.55 E80.33029
G1 X161.951 Y39.59 E80.35664
G1 X162.644 Y39.709 E80.38295
G1 X163.32 Y39.907 E80.4093
G1 X163.969 Y40.179 E80.43563
G1 X164.583 Y40.523 E80.46197
G1 X165.154 Y40.935 E80.48831
G1 X165.675 Y41.409 E80.51467
G1 X166.138 Y41.939 E80.541
G1 X166.539 Y42.518 E80.56736
G1 X166.871 Y43.139 E80.5937
G1 X167.131 Y43.793 E80.62004
G1 X167.315 Y44.472 E80.64636
G1 X167.421 Y45.168 E80.6727
G1 X167.448 Y45.75 E80.6945
G1 X167.448 Y154.25 E84.75432
G1 X167.408 Y154.953 E84.78067
G1 X167.289 Y155.647 E84.80701
G1 X167.091 Y156.322 E84.83333
G1 X166.819 Y156.971 E84.85967
G1 X166.474 Y157.585 E84.88602
G1 X166.063 Y158.156 E84.91234
G1 X165.589 Y158.677 E84.9387
G1 X165.059 Y159.141 E84.96506
G1 X164.48 Y159.541 E84.99139
G1 X163.859 Y159.873 E85.01774
G1 X163.205 Y160.133 E85.04407
G1 X162.525 Y160.317 E85.07043
G1 X161.829 Y160.423 E85.09677
G1 X161.248 Y160.45 E85.11854
G1 X43.713 Y160.45 E89.51642
G1 X43.277 Y160.435 E89.53274
G1 X42.624 Y160.389 E89.55724
G1 X41.876 Y160.29 E89.58547
G1 X41.357 Y160.189 E89.60525
G1 X40.744 Y160.037 E89.62889
G1 X40.252 Y159.888 E89.64812
G1 X39.645 Y159.669 E89.67227
G1 X39.172 Y159.47 E89.69147
G1 X38.578 Y159.182 E89.71617
G1 X38.12 Y158.929 E89.73575
G1 X37.578 Y158.592 E89.75963
G1 X37.148 Y158.293 E89.77922
G1 X36.633 Y157.893 E89.80362
G1 X36.227 Y157.542 E89.82371
G1 X35.737 Y157.069 E89.84919
G1 X35.365 Y156.668 E89.86966
G1 X34.963 Y156.189 E89.89305
G1 X34.66 Y155.788 E89.91186
G1 X34.296 Y155.249 E89.9362
G1 X34.025 Y154.799 E89.95585
G1 X33.696 Y154.174 E89.98228
G1 X33.445 Y153.624 E90.0049
G1 X33.185 Y152.954 E90.03179
G1 X33.024 Y152.455 E90.05141
G1 X32.861 Y151.847 E90.07497
G1 X32.743 Y151.295 E90.09609
G1 X32.637 Y150.618 E90.12173
G1 X32.587 Y150.12 E90.14046
G1 X32.556 Y149.52 E90.16294
G1 X32.551 Y147.874 E90.22453
G1 X32.551 Y45.75 E94.04577
G1 X32.591 Y45.047 E94.07211
G1 X32.71 Y44.353 E94.09846
G1 X32.908 Y43.678 E94.12478
G1 X33.18 Y43.029 E94.15111
G1 X33.525 Y42.415 E94.17746
G1 X33.936 Y41.844 E94.20379
G1 X34.41 Y41.323 E94.23014
G1 X34.94 Y40.859 E94.2565
G0 F3600 X35.329 Y41.067
G1 F1800 X35.901 Y40.698 E94.28197
G1 X36.513 Y40.399 E94.30746
G1 X37.155 Y40.174 E94.33291
G1 X37.82 Y40.025 E94.35841
G1 X38.753 Y39.95 E94.39344
G1 X46.733 Y39.953 E94.69203
G1 X103.712 Y39.95 E96.82405
G1 X161.248 Y39.95 E98.97691
G1 X161.927 Y39.99 E99.00236
G1 X162.598 Y40.109 E99.02786
G1 X163.249 Y40.306 E99.05331
G1 X163.874 Y40.578 E99.07882
G1 X164.462 Y40.922 E99.10431
G1 X165.005 Y41.332 E99.12976
G1 X165.497 Y41.802 E99.15522
G1 X165.931 Y42.328 E99.18074
G1 X166.299 Y42.9 E99.20619
G1 X166.599 Y43.511 E99.23166
G1 X166.824 Y44.154 E99.25715
G1 X166.973 Y44.818 E99.28261
G1 X167.048 Y45.75 E99.3176
G1 X167.048 Y154.25 E103.37741
G1 X167.008 Y154.93 E103.4029
G1 X166.889 Y155.6 E103.42836
G1 X166.692 Y156.252 E103.45385
G1 X166.42 Y156.876 E103.47932
G1 X166.076 Y157.464 E103.50481
G1 X165.666 Y158.008 E103.5303
G1 X165.195 Y158.499 E103.55576
G1 X164.67 Y158.933 E103.58124
G1 X164.098 Y159.302 E103.60671
G1 X163.486 Y159.601 E103.6322
G1 X162.844 Y159.826 E103.65766
G1 X162.179 Y159.975 E103.68316
G1 X161.248 Y160.05 E103.7181
G1 X43.713 Y160.05 E108.11599
G1 X43.305 Y160.036 E108.13126
G1 X42.652 Y159.99 E108.15576
G1 X41.952 Y159.897 E108.18218
G1 X41.433 Y159.796 E108.20196
G1 X40.86 Y159.654 E108.22405
G1 X40.368 Y159.505 E108.24329
G1 X39.8 Y159.3 E108.26588
G1 X39.327 Y159.101 E108.28508
G1 X38.772 Y158.832 E108.30816
G1 X38.314 Y158.579 E108.32774
G1 X37.807 Y158.264 E108.35007
G1 X37.377 Y157.965 E108.36967
G1 X36.895 Y157.591 E108.3925
G1 X36.489 Y157.24 E108.41258
G1 X36.03 Y156.797 E108.43645
G1 X35.658 Y156.396 E108.45692
G1 X35.282 Y155.948 E108.4788
G1 X34.979 Y155.547 E108.49761
G1 X34.638 Y155.042 E108.52041
G1 X34.367 Y154.592 E108.54006
G1 X34.059 Y154.008 E108.56477
G1 X33.808 Y153.458 E108.58739
G1 X33.565 Y152.831 E108.61255
G1 X33.404 Y152.332 E108.63217
G1 X33.252 Y151.763 E108.65421
G1 X33.134 Y151.211 E108.67533
G1 X33.035 Y150.578 E108.6993
G1 X32.985 Y150.08 E108.71803
G1 X32.956 Y149.519 E108.73905
G1 X32.951 Y147.873 E108.80064
G1 X32.951 Y45.75 E112.62184
G1 X32.991 Y45.07 E112.64733
G1 X33.11 Y44.4 E112.67279
G1 X33.307 Y43.748 E112.69828
G1 X33.579 Y43.124 E112.72375
G1 X33.923 Y42.536 E112.74924
G1 X34.333 Y41.992 E112.77473
G1 X34.804 Y41.501 E112.80019
G1 X35.329 Y41.067 E112.82567
G0 F3600 X35.196 Y41.685
G1 F1800 X35.716 Y41.284 E112.85024
G1 X36.28 Y40.948 E112.87481
G1 X36.882 Y40.684 E112.8994
G1 X37.511 Y40.494 E112.92399
G1 X38.158 Y40.383 E112.94855
G1 X38.753 Y40.35 E112.97085
G1 X46.733 Y40.353 E113.26944
G1 X103.712 Y40.35 E115.40146
G1 X161.248 Y40.35 E117.55433
G1 X161.903 Y40.39 E117.57888
G1 X162.55 Y40.509 E117.6035
G1 X163.176 Y40.706 E117.62805
G1 X163.775 Y40.978 E117.65267
G1 X164.335 Y41.32 E117.67722
G1 X164.851 Y41.727 E117.70181
G1 X165.312 Y42.195 E117.72639
G1 X165.714 Y42.714 E117.75095
G1 X166.05 Y43.279 E117.77555
G1 X166.314 Y43.881 E117.80015
G1 X166.504 Y44.51 E117.82473
G1 X166.615 Y45.157 E117.8493
G1 X166.648 Y45.75 E117.87152
G1 X166.648 Y154.25 E121.93134
G1 X166.608 Y154.906 E121.95593
G1 X166.489 Y155.552 E121.98051
G1 X166.292 Y156.179 E122.0051
G1 X166.02 Y156.777 E122.02968
G1 X165.678 Y157.338 E122.05426
G1 X165.27 Y157.853 E122.07885
G1 X164.803 Y158.315 E122.10343
