;FLAVOR:Marlin
;TIME:1669
;Filament used: 1.39255m
;Layer height: 0.15
;MINX:73.119
;MINY:69.753
;MINZ:0.15
;MAXX:126.874
;MAXY:123.69
;MAXZ:6
;Generated with Cura_SteamEngine 4.2.1
M140 S60
M105
M190 S60
M104 S225
M105
M109 S225
M82 ;absolute extrusion mode
G21 ;metric values
 G90 ;absolute positioning
 M82 ;set extruder to absolute mode
 M107 ;start with the fan off
 G28 X0 Y0 ;move X/Y to min endstops
 G28 Z0 ;move Z to min endstops
 G1 Z15.0 F120 ;move the platform down 15mm
 G92 E0 ;zero the extruded length
 G1 F200 E6 ;extrude 6 mm of feed stock
 G92 E0 ;zero the extruded length again
 G1 F120 
 ;Put printing message on LCD screen
 M117 Printing...
M141 S28
G92 E0
G92 E0
;LAYER_COUNT:40
;LAYER:0
M107
G0 F3600 X84.659 Y79.594 Z0.15
;TYPE:SKIRT
G1 F1800 X85.302 Y78.914 E0.02801
G1 X85.458 Y78.753 E0.03473
G1 X86.121 Y78.091 E0.06277
G1 X86.256 Y77.96 E0.0684
G1 X86.934 Y77.315 E0.09641
G1 X87.093 Y77.167 E0.10292
G1 X87.79 Y76.54 E0.13098
G1 X87.942 Y76.407 E0.13703
G1 X88.654 Y75.799 E0.16505
G1 X88.813 Y75.667 E0.17124
G1 X89.541 Y75.078 E0.19927
G1 X89.699 Y74.953 E0.2053
G1 X90.442 Y74.383 E0.23333
G1 X90.6 Y74.266 E0.23922
G1 X91.357 Y73.715 E0.26724
G1 X91.528 Y73.593 E0.27353
G1 X92.299 Y73.063 E0.30154
G1 X92.472 Y72.948 E0.30776
G1 X93.258 Y72.438 E0.3358
G1 X93.426 Y72.332 E0.34175
G1 X94.225 Y71.842 E0.36981
G1 X94.401 Y71.737 E0.37594
G1 X95.211 Y71.269 E0.40394
G1 X95.39 Y71.169 E0.41008
G1 X96.213 Y70.722 E0.43812
G1 X96.491 Y70.578 E0.44749
G1 X96.556 Y70.546 E0.44966
G1 X97.281 Y70.234 E0.47328
G1 X98.034 Y69.996 E0.49692
G1 X98.807 Y69.836 E0.52055
G1 X99.593 Y69.755 E0.54421
G1 X100.383 Y69.753 E0.56785
G1 X101.168 Y69.832 E0.59147
G1 X101.942 Y69.989 E0.61511
G1 X102.696 Y70.224 E0.63875
G1 X103.697 Y70.676 E0.67163
G1 X104.522 Y71.12 E0.69968
G1 X104.721 Y71.23 E0.70648
G1 X105.533 Y71.698 E0.73454
G1 X105.698 Y71.796 E0.74028
G1 X106.497 Y72.283 E0.76829
G1 X106.677 Y72.396 E0.77465
G1 X107.463 Y72.905 E0.80268
G1 X107.628 Y73.015 E0.80862
G1 X108.401 Y73.544 E0.83666
G1 X108.567 Y73.661 E0.84274
G1 X109.326 Y74.21 E0.87078
G1 X109.497 Y74.337 E0.87715
G1 X110.24 Y74.906 E0.90517
G1 X110.39 Y75.024 E0.91088
G1 X111.119 Y75.611 E0.9389
G1 X111.288 Y75.751 E0.94547
G1 X112.001 Y76.359 E0.97352
G1 X112.156 Y76.495 E0.97969
G1 X112.852 Y77.121 E1.00771
G1 X112.987 Y77.244 E1.01318
G1 X113.668 Y77.886 E1.04119
G1 X113.828 Y78.042 E1.04788
G1 X114.491 Y78.704 E1.07593
G1 X114.631 Y78.848 E1.08194
G1 X115.276 Y79.526 E1.10995
G1 X115.416 Y79.677 E1.11612
G1 X116.044 Y80.373 E1.14418
G1 X116.18 Y80.528 E1.15035
G1 X116.789 Y81.24 E1.1784
G1 X116.908 Y81.382 E1.18394
G1 X117.499 Y82.107 E1.21194
G1 X117.641 Y82.286 E1.21878
G1 X118.212 Y83.03 E1.24686
G1 X118.327 Y83.185 E1.25263
G1 X118.878 Y83.941 E1.28064
G1 X118.999 Y84.111 E1.28688
G1 X119.53 Y84.882 E1.3149
G1 X119.643 Y85.051 E1.32099
G1 X120.154 Y85.836 E1.34903
G1 X120.26 Y86.004 E1.35497
G1 X120.751 Y86.802 E1.38302
G1 X120.86 Y86.984 E1.38937
G1 X121.329 Y87.795 E1.41742
G1 X121.426 Y87.967 E1.42333
G1 X121.874 Y88.789 E1.45135
G1 X121.973 Y88.977 E1.45771
G1 X122.399 Y89.812 E1.48577
G1 X122.49 Y89.996 E1.49191
G1 X122.893 Y90.84 E1.51991
G1 X122.976 Y91.019 E1.52582
G1 X123.358 Y91.874 E1.55385
G1 X123.44 Y92.066 E1.5601
G1 X123.799 Y92.931 E1.58813
G1 X123.87 Y93.108 E1.59384
G1 X124.208 Y93.982 E1.62189
G1 X124.287 Y94.196 E1.62872
G1 X124.599 Y95.079 E1.65675
G1 X124.661 Y95.261 E1.66251
G1 X124.951 Y96.151 E1.69053
G1 X125.012 Y96.345 E1.69662
G1 X125.279 Y97.243 E1.72466
G1 X125.335 Y97.441 E1.73082
G1 X125.578 Y98.345 E1.75884
G1 X125.63 Y98.553 E1.76526
G1 X125.848 Y99.463 E1.79327
G1 X125.889 Y99.64 E1.79871
G1 X126.086 Y100.556 E1.82676
G1 X126.13 Y100.78 E1.83359
G1 X126.3 Y101.701 E1.86162
G1 X126.333 Y101.893 E1.86746
G1 X126.48 Y102.818 E1.89549
G1 X126.509 Y103.017 E1.90151
G1 X126.632 Y103.945 E1.92953
G1 X126.656 Y104.145 E1.93556
G1 X126.755 Y105.076 E1.96359
G1 X126.775 Y105.285 E1.96987
G1 X126.849 Y106.219 E1.99792
G1 X126.86 Y106.387 E2.00296
G1 X126.868 Y106.526 E2.00713
G1 X126.874 Y107.315 E2.03075
G1 X126.799 Y108.102 E2.05441
G1 X126.645 Y108.876 E2.07803
G1 X126.414 Y109.631 E2.10167
G1 X126.108 Y110.359 E2.12531
G1 X125.73 Y111.052 E2.14894
G1 X125.283 Y111.704 E2.1726
G1 X124.773 Y112.307 E2.19624
G1 X124.205 Y112.855 E2.21987
G1 X123.584 Y113.343 E2.24351
G1 X122.917 Y113.766 E2.26715
G1 X122.211 Y114.119 E2.29078
G1 X121.735 Y114.299 E2.30601
G1 X121.724 Y114.438 E2.31019
G1 X121.584 Y115.216 E2.33385
G1 X121.366 Y115.975 E2.35749
G1 X121.073 Y116.708 E2.38112
G1 X120.707 Y117.407 E2.40474
G1 X120.272 Y118.066 E2.42837
G1 X119.772 Y118.678 E2.45203
G1 X119.213 Y119.236 E2.47567
G1 X118.601 Y119.735 E2.49931
G1 X117.941 Y120.169 E2.52296
G1 X117.241 Y120.534 E2.54659
G1 X116.56 Y120.809 E2.56857
G1 X115.644 Y121.129 E2.59762
G1 X115.466 Y121.188 E2.60323
G1 X114.539 Y121.487 E2.63239
G1 X114.351 Y121.546 E2.63828
G1 X113.347 Y121.842 E2.66962
G1 X113.168 Y121.892 E2.67518
G1 X112.228 Y122.145 E2.70432
G1 X112.042 Y122.193 E2.71007
G1 X111.095 Y122.423 E2.73924
G1 X110.928 Y122.461 E2.74437
G1 X109.977 Y122.67 E2.77352
G1 X109.774 Y122.712 E2.77972
G1 X108.816 Y122.896 E2.80892
G1 X108.642 Y122.927 E2.81421
G1 X107.681 Y123.089 E2.84339
G1 X107.495 Y123.118 E2.84902
G1 X106.529 Y123.257 E2.87823
G1 X106.351 Y123.281 E2.88361
G1 X105.38 Y123.398 E2.91289
G1 X105.196 Y123.418 E2.91843
G1 X104.221 Y123.512 E2.94775
G1 X104.037 Y123.528 E2.95328
G1 X103.059 Y123.599 E2.98263
G1 X102.868 Y123.61 E2.98836
G1 X101.889 Y123.657 E3.0177
G1 X101.706 Y123.664 E3.02318
G1 X100.727 Y123.688 E3.05249
G1 X100.536 Y123.69 E3.05821
G1 X99.557 Y123.69 E3.08752
G1 X99.382 Y123.688 E3.09275
G1 X98.403 Y123.666 E3.12207
G1 X98.212 Y123.659 E3.12779
G1 X97.233 Y123.613 E3.15713
G1 X97.041 Y123.602 E3.16288
G1 X96.065 Y123.532 E3.19217
G1 X95.884 Y123.517 E3.19761
G1 X94.907 Y123.424 E3.22699
G1 X94.723 Y123.404 E3.23253
G1 X93.75 Y123.288 E3.26186
G1 X93.558 Y123.263 E3.26766
G1 X92.589 Y123.123 E3.29696
G1 X92.417 Y123.096 E3.30218
G1 X91.455 Y122.935 E3.33137
G1 X91.268 Y122.901 E3.33706
G1 X90.312 Y122.717 E3.3662
G1 X90.13 Y122.68 E3.37176
G1 X89.177 Y122.473 E3.40096
G1 X88.99 Y122.43 E3.4067
G1 X88.044 Y122.2 E3.43584
G1 X87.877 Y122.157 E3.441
G1 X86.936 Y121.906 E3.47016
G1 X86.75 Y121.855 E3.47593
G1 X85.816 Y121.581 E3.50507
G1 X85.644 Y121.528 E3.51046
G1 X84.646 Y121.21 E3.54181
G1 X84.454 Y121.146 E3.54787
G1 X83.533 Y120.826 E3.57705
G1 X83.341 Y120.756 E3.58317
G1 X83.28 Y120.733 E3.58512
G1 X82.556 Y120.418 E3.60876
G1 X81.868 Y120.031 E3.63239
G1 X81.222 Y119.576 E3.65604
G1 X80.626 Y119.058 E3.67968
G1 X80.085 Y118.483 E3.70331
G1 X79.606 Y117.855 E3.72695
G1 X79.191 Y117.183 E3.75059
G1 X78.848 Y116.472 E3.77422
G1 X78.577 Y115.73 E3.79787
G1 X78.383 Y114.965 E3.8215
G1 X78.287 Y114.312 E3.84125
G1 X78.247 Y114.3 E3.8425
G1 X77.52 Y113.992 E3.86614
G1 X76.827 Y113.613 E3.88978
G1 X76.177 Y113.165 E3.91341
G1 X75.575 Y112.654 E3.93705
G1 X75.028 Y112.084 E3.9607
G1 X74.541 Y111.462 E3.98434
G1 X74.12 Y110.794 E4.00798
G1 X73.768 Y110.087 E4.03162
G1 X73.49 Y109.348 E4.05526
G1 X73.288 Y108.585 E4.07888
G1 X73.164 Y107.805 E4.10252
G1 X73.119 Y107.017 E4.12615
G1 X73.141 Y106.39 E4.14493
G1 X73.216 Y105.388 E4.17501
G1 X73.235 Y105.169 E4.18159
G1 X73.331 Y104.239 E4.20958
G1 X73.355 Y104.034 E4.21575
G1 X73.476 Y103.104 E4.24383
G1 X73.505 Y102.901 E4.24997
G1 X73.65 Y101.977 E4.27796
G1 X73.685 Y101.772 E4.28419
G1 X73.855 Y100.85 E4.31225
G1 X73.894 Y100.656 E4.31818
G1 X74.087 Y99.74 E4.3462
G1 X74.131 Y99.541 E4.3523
G1 X74.348 Y98.63 E4.38033
G1 X74.399 Y98.428 E4.38657
G1 X74.64 Y97.524 E4.41457
G1 X74.695 Y97.33 E4.42061
G1 X74.96 Y96.43 E4.44869
G1 X75.023 Y96.224 E4.45514
G1 X75.312 Y95.334 E4.48315
G1 X75.377 Y95.144 E4.48917
G1 X75.689 Y94.261 E4.5172
G1 X75.756 Y94.078 E4.52303
G1 X76.09 Y93.203 E4.55107
G1 X76.166 Y93.012 E4.55722
G1 X76.523 Y92.146 E4.58526
G1 X76.606 Y91.951 E4.5916
G1 X76.986 Y91.096 E4.61961
G1 X77.069 Y90.916 E4.62555
G1 X77.471 Y90.07 E4.65358
G1 X77.568 Y89.873 E4.66016
G1 X77.994 Y89.038 E4.68822
G1 X78.077 Y88.88 E4.69356
G1 X78.522 Y88.055 E4.72162
G1 X78.633 Y87.856 E4.72844
G1 X79.101 Y87.046 E4.75644
G1 X79.198 Y86.882 E4.76215
G1 X79.686 Y86.083 E4.79017
G1 X79.796 Y85.909 E4.79633
G1 X80.305 Y85.123 E4.82436
G1 X80.425 Y84.943 E4.83084
G1 X80.956 Y84.171 E4.85889
G1 X81.07 Y84.01 E4.86479
G1 X81.62 Y83.252 E4.89283
G1 X81.744 Y83.085 E4.89905
G1 X82.314 Y82.342 E4.92708
G1 X82.428 Y82.198 E4.93258
G1 X83.015 Y81.469 E4.9606
G1 X83.163 Y81.291 E4.96753
G1 X83.772 Y80.579 E4.99557
G1 X83.904 Y80.428 E5.00158
G1 X84.531 Y79.732 E5.02962
G1 X84.659 Y79.594 E5.03525
G0 F3600 X84.949 Y79.869
G1 F1800 X85.592 Y79.189 E5.06327
G1 X85.74 Y79.036 E5.06964
G1 X86.403 Y78.374 E5.09769
G1 X86.532 Y78.25 E5.10304
G1 X87.21 Y77.605 E5.13105
G1 X87.361 Y77.464 E5.13724
G1 X88.058 Y76.837 E5.1653
G1 X88.202 Y76.712 E5.17101
G1 X88.914 Y76.104 E5.19904
G1 X89.065 Y75.978 E5.20492
G1 X89.793 Y75.389 E5.23296
G1 X89.943 Y75.271 E5.23867
G1 X90.686 Y74.701 E5.2667
G1 X90.835 Y74.589 E5.27228
G1 X91.592 Y74.038 E5.30031
G1 X91.755 Y73.923 E5.30628
G1 X92.526 Y73.393 E5.33429
G1 X92.69 Y73.283 E5.3402
G1 X93.476 Y72.773 E5.36824
G1 X93.635 Y72.673 E5.37387
G1 X94.434 Y72.183 E5.40192
G1 X94.601 Y72.084 E5.40773
G1 X95.411 Y71.616 E5.43574
G1 X95.581 Y71.52 E5.44158
G1 X96.404 Y71.073 E5.46962
G1 X96.668 Y70.937 E5.47851
G1 X96.733 Y70.905 E5.48067
G1 X97.439 Y70.602 E5.50367
G1 X98.174 Y70.373 E5.52672
G1 X98.928 Y70.222 E5.54974
G1 X99.694 Y70.15 E5.57277
G1 X100.463 Y70.158 E5.59579
G1 X101.227 Y70.246 E5.61881
G1 X101.978 Y70.413 E5.64184
G1 X102.707 Y70.657 E5.66485
G1 X103.508 Y71.028 E5.69127
G1 X104.333 Y71.472 E5.71932
G1 X104.521 Y71.577 E5.72576
G1 X105.333 Y72.045 E5.75382
G1 X105.489 Y72.137 E5.75924
G1 X106.288 Y72.624 E5.78725
G1 X106.459 Y72.732 E5.7933
G1 X107.245 Y73.241 E5.82133
G1 X107.402 Y73.345 E5.82697
G1 X108.175 Y73.874 E5.85501
G1 X108.333 Y73.985 E5.86079
G1 X109.092 Y74.534 E5.88883
G1 X109.254 Y74.655 E5.89488
G1 X109.997 Y75.224 E5.9229
G1 X110.139 Y75.335 E5.92829
G1 X110.868 Y75.922 E5.95631
G1 X111.029 Y76.055 E5.96256
G1 X111.742 Y76.663 E5.99061
G1 X111.889 Y76.792 E5.99646
G1 X112.585 Y77.418 E6.02449
G1 X112.712 Y77.536 E6.02968
G1 X113.393 Y78.178 E6.05769
G1 X113.546 Y78.325 E6.06404
G1 X114.209 Y78.987 E6.09209
G1 X114.341 Y79.124 E6.09778
G1 X114.986 Y79.802 E6.12579
G1 X115.119 Y79.945 E6.13164
G1 X115.747 Y80.641 E6.1597
G1 X115.877 Y80.788 E6.16558
G1 X116.486 Y81.5 E6.19362
G1 X116.598 Y81.634 E6.19885
G1 X117.189 Y82.359 E6.22685
G1 X117.323 Y82.53 E6.23335
G1 X117.894 Y83.274 E6.26143
G1 X118.004 Y83.42 E6.2669
G1 X118.555 Y84.176 E6.2949
G1 X118.669 Y84.338 E6.30083
G1 X119.2 Y85.109 E6.32885
G1 X119.308 Y85.269 E6.33463
G1 X119.819 Y86.054 E6.36267
G1 X119.92 Y86.213 E6.36831
G1 X120.411 Y87.011 E6.39636
G1 X120.514 Y87.184 E6.40238
G1 X120.983 Y87.995 E6.43043
G1 X121.075 Y88.159 E6.43606
G1 X121.523 Y88.981 E6.46408
G1 X121.617 Y89.159 E6.4701
G1 X122.043 Y89.994 E6.49816
G1 X122.129 Y90.168 E6.50397
G1 X122.532 Y91.012 E6.53197
G1 X122.61 Y91.182 E6.53757
G1 X122.992 Y92.037 E6.5656
G1 X123.071 Y92.219 E6.57154
G1 X123.43 Y93.084 E6.59958
G1 X123.497 Y93.252 E6.60499
G1 X123.835 Y94.126 E6.63304
G1 X123.91 Y94.33 E6.63955
G1 X124.222 Y95.213 E6.66758
G1 X124.281 Y95.385 E6.67302
G1 X124.571 Y96.275 E6.70104
G1 X124.628 Y96.459 E6.70681
G1 X124.895 Y97.357 E6.73485
G1 X124.948 Y97.545 E6.7407
G1 X125.191 Y98.449 E6.76872
G1 X125.241 Y98.646 E6.77481
G1 X125.459 Y99.556 E6.80282
G1 X125.498 Y99.724 E6.80798
G1 X125.695 Y100.64 E6.83603
G1 X125.737 Y100.853 E6.84252
G1 X125.907 Y101.774 E6.87056
G1 X125.938 Y101.956 E6.87609
G1 X126.085 Y102.881 E6.90412
G1 X126.113 Y103.07 E6.90984
G1 X126.236 Y103.998 E6.93786
G1 X126.259 Y104.188 E6.94359
G1 X126.358 Y105.119 E6.97162
G1 X126.376 Y105.317 E6.97757
G1 X126.45 Y106.251 E7.00562
G1 X126.461 Y106.41 E7.01039
G1 X126.469 Y106.549 E7.01455
G1 X126.473 Y107.318 E7.03757
G1 X126.397 Y108.083 E7.06059
G1 X126.243 Y108.837 E7.08362
G1 X126.011 Y109.57 E7.10664
G1 X125.704 Y110.275 E7.12965
G1 X125.325 Y110.945 E7.1527
G1 X124.879 Y111.572 E7.17573
G1 X124.371 Y112.149 E7.19874
G1 X123.805 Y112.67 E7.22177
G1 X123.188 Y113.129 E7.24479
G1 X122.527 Y113.523 E7.26782
G1 X121.829 Y113.845 E7.29083
G1 X121.357 Y114.006 E7.30576
G1 X121.323 Y114.427 E7.31841
G1 X121.181 Y115.183 E7.34143
G1 X120.962 Y115.92 E7.36445
G1 X120.667 Y116.631 E7.38749
G1 X120.3 Y117.307 E7.41051
G1 X119.865 Y117.941 E7.43353
G1 X119.367 Y118.527 E7.45655
G1 X118.81 Y119.058 E7.47959
G1 X118.202 Y119.528 E7.50259
G1 X117.547 Y119.933 E7.52564
G1 X116.855 Y120.267 E7.54864
G1 X116.429 Y120.431 E7.56231
G1 X115.513 Y120.751 E7.59135
G1 X115.344 Y120.808 E7.59669
G1 X114.417 Y121.107 E7.62585
G1 X114.238 Y121.162 E7.63145
G1 X113.234 Y121.458 E7.66279
G1 X113.064 Y121.506 E7.66807
G1 X112.124 Y121.759 E7.69721
G1 X111.947 Y121.804 E7.70268
G1 X111 Y122.034 E7.73185
G1 X110.842 Y122.071 E7.73671
G1 X109.891 Y122.28 E7.76586
G1 X109.699 Y122.319 E7.77172
G1 X108.741 Y122.503 E7.80092
G1 X108.575 Y122.533 E7.80597
G1 X107.614 Y122.695 E7.83514
G1 X107.438 Y122.723 E7.84048
G1 X106.472 Y122.862 E7.86969
G1 X106.303 Y122.884 E7.87479
G1 X105.332 Y123.001 E7.90407
G1 X105.157 Y123.02 E7.90934
G1 X104.182 Y123.114 E7.93866
G1 X104.008 Y123.129 E7.94389
G1 X103.03 Y123.2 E7.97324
G1 X102.849 Y123.21 E7.97867
G1 X101.87 Y123.257 E8.00801
G1 X101.696 Y123.264 E8.01322
G1 X100.717 Y123.288 E8.04253
G1 X100.536 Y123.29 E8.04795
G1 X99.557 Y123.29 E8.07726
G1 X99.391 Y123.288 E8.08223
G1 X98.412 Y123.266 E8.11154
G1 X98.231 Y123.26 E8.11696
G1 X97.252 Y123.214 E8.1463
G1 X97.07 Y123.203 E8.15176
G1 X96.094 Y123.133 E8.18105
G1 X95.922 Y123.119 E8.18621
G1 X94.945 Y123.026 E8.21559
G1 X94.77 Y123.007 E8.22086
G1 X93.797 Y122.891 E8.25019
G1 X93.615 Y122.867 E8.25569
G1 X92.646 Y122.727 E8.285
G1 X92.483 Y122.701 E8.28994
G1 X91.521 Y122.54 E8.31913
G1 X91.343 Y122.509 E8.32454
G1 X90.387 Y122.325 E8.35368
G1 X90.215 Y122.289 E8.35894
G1 X89.262 Y122.082 E8.38814
G1 X89.085 Y122.042 E8.39357
G1 X88.139 Y121.812 E8.42271
G1 X87.98 Y121.771 E8.42763
G1 X87.039 Y121.52 E8.45678
G1 X86.863 Y121.471 E8.46225
G1 X85.929 Y121.197 E8.49138
G1 X85.765 Y121.147 E8.49652
G1 X84.767 Y120.829 E8.52787
G1 X84.585 Y120.768 E8.53362
G1 X83.664 Y120.448 E8.5628
G1 X83.482 Y120.382 E8.5686
G1 X83.421 Y120.359 E8.57055
G1 X82.717 Y120.051 E8.59355
G1 X82.048 Y119.671 E8.61658
G1 X81.422 Y119.224 E8.63961
G1 X80.846 Y118.714 E8.66264
G1 X80.326 Y118.147 E8.68567
G1 X79.868 Y117.529 E8.70869
G1 X79.476 Y116.867 E8.73172
G1 X79.155 Y116.168 E8.75475
G1 X78.909 Y115.44 E8.77775
G1 X78.739 Y114.69 E8.80077
G1 X78.658 Y114.008 E8.82133
G1 X78.346 Y113.91 E8.83112
G1 X77.64 Y113.606 E8.85413
G1 X76.969 Y113.23 E8.87715
G1 X76.341 Y112.786 E8.90017
G1 X75.762 Y112.279 E8.92321
G1 X75.239 Y111.715 E8.94624
G1 X74.778 Y111.1 E8.96924
G1 X74.382 Y110.441 E8.99226
G1 X74.058 Y109.743 E9.01529
G1 X73.807 Y109.016 E9.03832
G1 X73.633 Y108.267 E9.06133
G1 X73.538 Y107.504 E9.08435
G1 X73.54 Y106.42 E9.1168
G1 X73.615 Y105.418 E9.14688
G1 X73.633 Y105.21 E9.15313
G1 X73.729 Y104.28 E9.18111
G1 X73.752 Y104.085 E9.18699
G1 X73.873 Y103.155 E9.21506
G1 X73.9 Y102.963 E9.22087
G1 X74.045 Y102.039 E9.24887
G1 X74.079 Y101.844 E9.25479
G1 X74.249 Y100.922 E9.28285
G1 X74.285 Y100.738 E9.28847
G1 X74.478 Y99.822 E9.31649
G1 X74.52 Y99.633 E9.32228
G1 X74.737 Y98.722 E9.35032
G1 X74.786 Y98.531 E9.35622
G1 X75.027 Y97.627 E9.38423
G1 X75.078 Y97.443 E9.38994
G1 X75.343 Y96.543 E9.41803
G1 X75.404 Y96.348 E9.42414
G1 X75.693 Y95.458 E9.45215
G1 X75.754 Y95.278 E9.45784
G1 X76.066 Y94.395 E9.48587
G1 X76.13 Y94.221 E9.49142
G1 X76.464 Y93.346 E9.51946
G1 X76.536 Y93.165 E9.52529
G1 X76.893 Y92.299 E9.55333
G1 X76.972 Y92.114 E9.55935
G1 X77.352 Y91.259 E9.58736
G1 X77.43 Y91.088 E9.59299
G1 X77.832 Y90.242 E9.62102
G1 X77.924 Y90.055 E9.62726
