;FLAVOR:Marlin
;TIME:2622
;Filament used: 3.23558m
;Layer height: 0.15
;MINX:74.6
;MINY:84.6
;MINZ:0.15
;MAXX:125.4
;MAXY:115.4
;MAXZ:36
;Generated with Cura_SteamEngine 4.2.1
M140 S60
M105
M190 S60
M104 S220
M105
M109 S220
M82 ;absolute extrusion mode
G21 ;metric values
 G90 ;absolute positioning
 M82 ;set extruder to absolute mode
 M107 ;start with the fan off
 G28 X0 Y0 ;move X/Y to min endstops
 G28 Z0 ;move Z to min endstops
 G1 Z15.0 F120 ;move the platform down 15mm
 G92 E0 ;zero the extruded length
 G1 F200 E6 ;extrude 6 mm of feed stock
 G92 E0 ;zero the extruded length again
 G1 F120 
 ;Put printing message on LCD screen
 M117 Printing...
M141 S28
G92 E0
G92 E0
;LAYER_COUNT:240
;LAYER:0
M107
;MESH:srh3.stl
G0 F3600 X105 Y107.3 Z0.15
;TYPE:WALL-INNER
G1 F3000 X105 Y108.151 E0.02123
G1 X98.151 Y115 E0.26285
G1 X81.849 Y115 E0.6695
G1 X75 Y108.151 E0.91112
G1 X75 Y92.99 E1.28931
G1 X82.99 Y85 E1.57118
G1 X98.567 Y85 E1.95975
G1 X105 Y91.433 E2.18669
G1 X105 Y92.791 E2.22057
G1 X125 Y92.8 E2.71947
G1 X125 Y107.3 E3.08117
G1 X105 Y107.3 E3.58007
G0 F3600 X105.4 Y107.7
;TYPE:WALL-OUTER
G1 F3000 X105.4 Y108.317 E3.59546
G1 X98.317 Y115.4 E3.84534
G1 X81.683 Y115.4 E4.26027
G1 X74.6 Y108.317 E4.51015
G1 X74.6 Y92.824 E4.89662
G1 X82.824 Y84.6 E5.18674
G1 X98.733 Y84.6 E5.5836
G1 X105.4 Y91.267 E5.81879
G1 X105.4 Y92.391 E5.84683
G1 X125.4 Y92.4 E6.34573
G1 X125.4 Y107.7 E6.72739
G1 X105.4 Y107.7 E7.22629
G0 F3600 X105.4 Y107.9
G0 X104.61 Y107.991
;TYPE:SKIN
G1 F3000 X97.991 Y114.61 E7.4598
G1 X82.009 Y114.61 E7.85847
G1 X75.39 Y107.991 E8.09197
G1 X75.39 Y93.15 E8.46218
G1 X83.15 Y85.39 E8.73594
G1 X98.407 Y85.39 E9.11653
G1 X104.61 Y91.593 E9.33535
G1 X104.61 Y93.181 E9.37497
G1 X124.61 Y93.19 E9.87387
G1 X124.61 Y106.91 E10.21611
G1 X104.61 Y106.91 E10.71502
G1 X104.61 Y107.991 E10.74198
G0 F3600 X82.184 Y114.428
G1 F3000 X75.569 Y107.813 E10.97534
G0 F3600 X75.569 Y107.248
G1 F3000 X82.75 Y114.428 E11.22866
G0 F3600 X83.316 Y114.428
G1 F3000 X75.569 Y106.682 E11.50193
G0 F3600 X75.569 Y106.116
G1 F3000 X83.881 Y114.428 E11.79516
G0 F3600 X84.447 Y114.428
G1 F3000 X75.569 Y105.551 E12.10834
G0 F3600 X75.569 Y104.985
G1 F3000 X85.013 Y114.428 E12.44149
G0 F3600 X85.579 Y114.428
G1 F3000 X75.569 Y104.419 E12.7946
G0 F3600 X75.569 Y103.854
G1 F3000 X86.144 Y114.428 E13.16764
G0 F3600 X86.71 Y114.428
G1 F3000 X75.569 Y103.288 E13.56065
G0 F3600 X75.569 Y102.722
G1 F3000 X87.276 Y114.428 E13.97363
G0 F3600 X87.841 Y114.428
G1 F3000 X75.569 Y102.157 E14.40654
G0 F3600 X75.569 Y101.591
G1 F3000 X88.407 Y114.428 E14.85942
G0 F3600 X88.973 Y114.428
G1 F3000 X75.569 Y101.025 E15.33226
G0 F3600 X75.569 Y100.46
G1 F3000 X89.538 Y114.428 E15.82504
G0 F3600 X90.104 Y114.428
G1 F3000 X75.569 Y99.894 E16.33778
G0 F3600 X75.569 Y99.328
G1 F3000 X90.67 Y114.428 E16.8705
G0 F3600 X91.235 Y114.428
G1 F3000 X75.569 Y98.763 E17.42314
G0 F3600 X75.569 Y98.197
G1 F3000 X91.801 Y114.428 E17.99575
G0 F3600 X92.367 Y114.428
G1 F3000 X75.569 Y97.631 E18.58833
G0 F3600 X75.569 Y97.065
G1 F3000 X92.932 Y114.428 E19.20085
G0 F3600 X93.498 Y114.428
G1 F3000 X75.569 Y96.5 E19.83333
G0 F3600 X75.569 Y95.934
G1 F3000 X94.064 Y114.428 E20.48577
G0 F3600 X94.629 Y114.428
G1 F3000 X75.569 Y95.368 E21.15816
G0 F3600 X75.569 Y94.803
G1 F3000 X95.195 Y114.428 E21.85051
G0 F3600 X95.761 Y114.428
G1 F3000 X75.569 Y94.237 E22.56282
G0 F3600 X75.569 Y93.671
G1 F3000 X96.327 Y114.428 E23.29509
G0 F3600 X96.892 Y114.428
G1 F3000 X75.628 Y93.164 E24.04524
G0 F3600 X75.911 Y92.882
G1 F3000 X97.458 Y114.428 E24.80535
G0 F3600 X97.971 Y114.375
G1 F3000 X76.194 Y92.599 E25.57357
G0 F3600 X76.477 Y92.316
G1 F3000 X98.253 Y114.093 E26.3418
G0 F3600 X98.536 Y113.81
G1 F3000 X76.759 Y92.033 E27.11004
G0 F3600 X77.042 Y91.75
G1 F3000 X98.819 Y113.527 E27.87828
G0 F3600 X99.102 Y113.244
G1 F3000 X77.325 Y91.467 E28.64653
G0 F3600 X77.608 Y91.184
G1 F3000 X99.385 Y112.961 E29.41477
G0 F3600 X99.668 Y112.678
G1 F3000 X77.891 Y90.902 E30.18299
G0 F3600 X78.174 Y90.619
G1 F3000 X99.95 Y112.396 E30.95122
G0 F3600 X100.233 Y112.113
G1 F3000 X78.457 Y90.336 E31.71944
G0 F3600 X78.739 Y90.053
G1 F3000 X100.516 Y111.83 E32.48769
G0 F3600 X100.799 Y111.547
G1 F3000 X79.022 Y89.77 E33.25593
G0 F3600 X79.305 Y89.487
G1 F3000 X101.082 Y111.264 E34.02417
G0 F3600 X101.365 Y110.981
G1 F3000 X79.588 Y89.205 E34.7924
G0 F3600 X79.871 Y88.922
G1 F3000 X101.648 Y110.698 E35.56062
G0 F3600 X101.93 Y110.416
G1 F3000 X80.154 Y88.639 E36.32885
G0 F3600 X80.436 Y88.356
G1 F3000 X102.213 Y110.133 E37.09709
G0 F3600 X102.496 Y109.85
G1 F3000 X80.719 Y88.073 E37.86533
G0 F3600 X81.002 Y87.79
G1 F3000 X102.779 Y109.567 E38.63357
G0 F3600 X103.062 Y109.284
G1 F3000 X81.285 Y87.507 E39.40182
G0 F3600 X81.568 Y87.225
G1 F3000 X103.345 Y109.001 E40.17004
G0 F3600 X103.627 Y108.719
G1 F3000 X81.851 Y86.942 E40.93827
G0 F3600 X82.133 Y86.659
G1 F3000 X103.91 Y108.436 E41.70651
G0 F3600 X104.193 Y108.153
G1 F3000 X82.416 Y86.376 E42.47475
G0 F3600 X82.699 Y86.093
G1 F3000 X104.43 Y107.824 E43.24137
G0 F3600 X104.43 Y107.258
G1 F3000 X82.982 Y85.81 E43.99801
G0 F3600 X83.307 Y85.569
G1 F3000 X104.466 Y106.729 E44.74446
G0 F3600 X105.032 Y106.729
G1 F3000 X83.872 Y85.569 E45.49094
G0 F3600 X84.438 Y85.569
G1 F3000 X105.597 Y106.729 E46.2374
G0 F3600 X106.163 Y106.729
G1 F3000 X85.004 Y85.569 E46.98386
G0 F3600 X85.569 Y85.569
G1 F3000 X106.729 Y106.729 E47.73033
G0 F3600 X107.294 Y106.729
G1 F3000 X86.135 Y85.569 E48.47679
G0 F3600 X86.701 Y85.569
G1 F3000 X107.86 Y106.729 E49.22325
G0 F3600 X108.426 Y106.729
G1 F3000 X87.266 Y85.569 E49.96973
G0 F3600 X87.832 Y85.569
G1 F3000 X108.992 Y106.729 E50.7162
G0 F3600 X109.557 Y106.729
G1 F3000 X88.398 Y85.569 E51.46266
G0 F3600 X88.963 Y85.569
G1 F3000 X110.123 Y106.729 E52.20914
G0 F3600 X110.689 Y106.729
G1 F3000 X89.529 Y85.569 E52.95561
G0 F3600 X90.095 Y85.569
G1 F3000 X111.254 Y106.729 E53.70207
G0 F3600 X111.82 Y106.729
G1 F3000 X90.66 Y85.569 E54.44855
G0 F3600 X91.227 Y85.57
G1 F3000 X112.386 Y106.729 E55.19499
G0 F3600 X112.951 Y106.729
G1 F3000 X91.793 Y85.57 E55.94141
G0 F3600 X92.358 Y85.57
G1 F3000 X113.517 Y106.729 E56.68785
G0 F3600 X114.083 Y106.729
G1 F3000 X92.924 Y85.57 E57.43429
G0 F3600 X93.49 Y85.57
G1 F3000 X114.648 Y106.729 E58.18072
G0 F3600 X115.214 Y106.729
G1 F3000 X94.055 Y85.57 E58.92716
G0 F3600 X94.621 Y85.57
G1 F3000 X115.78 Y106.729 E59.6736
G0 F3600 X116.345 Y106.729
G1 F3000 X95.187 Y85.57 E60.42002
G0 F3600 X95.752 Y85.57
G1 F3000 X116.911 Y106.729 E61.16646
G0 F3600 X117.477 Y106.729
G1 F3000 X96.318 Y85.57 E61.9129
G0 F3600 X96.884 Y85.57
G1 F3000 X104.429 Y93.115 E62.17907
G0 F3600 X104.675 Y93.362
G1 F3000 X118.042 Y106.729 E62.65063
G0 F3600 X118.608 Y106.729
G1 F3000 X105.241 Y93.362 E63.12219
G0 F3600 X105.807 Y93.362
G1 F3000 X119.174 Y106.729 E63.59375
G0 F3600 X119.74 Y106.729
G1 F3000 X106.373 Y93.362 E64.0653
G0 F3600 X106.939 Y93.362
G1 F3000 X120.305 Y106.729 E64.53684
G0 F3600 X120.871 Y106.729
G1 F3000 X107.504 Y93.362 E65.0084
G0 F3600 X108.071 Y93.363
G1 F3000 X121.437 Y106.729 E65.47992
G0 F3600 X122.002 Y106.729
G1 F3000 X108.637 Y93.363 E65.95143
G0 F3600 X109.202 Y93.363
G1 F3000 X122.568 Y106.729 E66.42295
G0 F3600 X123.134 Y106.729
G1 F3000 X109.769 Y93.364 E66.89443
G0 F3600 X110.334 Y93.364
G1 F3000 X123.699 Y106.729 E67.36592
G0 F3600 X124.265 Y106.729
G1 F3000 X110.9 Y93.364 E67.83741
G0 F3600 X111.466 Y93.364
G1 F3000 X124.428 Y106.326 E68.29468
G0 F3600 X124.428 Y105.761
G1 F3000 X112.032 Y93.364 E68.732
G0 F3600 X112.598 Y93.364
G1 F3000 X124.428 Y105.195 E69.14935
G0 F3600 X124.428 Y104.629
G1 F3000 X113.164 Y93.365 E69.54672
G0 F3600 X113.73 Y93.365
G1 F3000 X124.428 Y104.064 E69.92414
G0 F3600 X124.428 Y103.498
G1 F3000 X114.296 Y93.365 E70.28159
G0 F3600 X114.862 Y93.366
G1 F3000 X124.428 Y102.932 E70.61905
G0 F3600 X124.428 Y102.367
G1 F3000 X115.428 Y93.366 E70.93657
G0 F3600 X115.993 Y93.366
G1 F3000 X124.428 Y101.801 E71.23414
G0 F3600 X124.428 Y101.235
G1 F3000 X116.56 Y93.367 E71.5117
G0 F3600 X117.125 Y93.367
G1 F3000 X124.428 Y100.67 E71.76934
G0 F3600 X124.428 Y100.104
G1 F3000 X117.691 Y93.367 E72.007
G0 F3600 X118.257 Y93.367
G1 F3000 X124.428 Y99.538 E72.2247
G0 F3600 X124.428 Y98.973
G1 F3000 X118.823 Y93.367 E72.42245
G0 F3600 X119.389 Y93.367
G1 F3000 X124.428 Y98.407 E72.60023
G0 F3600 X124.428 Y97.841
G1 F3000 X119.955 Y93.368 E72.75803
G0 F3600 X120.521 Y93.368
G1 F3000 X124.428 Y97.275 E72.89586
G0 F3600 X124.428 Y96.71
G1 F3000 X121.087 Y93.368 E73.01374
G0 F3600 X121.653 Y93.369
G1 F3000 X124.428 Y96.144 E73.11163
G0 F3600 X124.428 Y95.578
G1 F3000 X122.219 Y93.369 E73.18956
G0 F3600 X122.785 Y93.369
G1 F3000 X124.428 Y95.013 E73.24754
G0 F3600 X124.428 Y94.447
G1 F3000 X123.351 Y93.369 E73.28555
G0 F3600 X123.916 Y93.369
G1 F3000 X124.428 Y93.881 E73.30362
G0 F3600 X104.972 Y92.819
G0 X104.429 Y92.549
G1 F3000 X97.449 Y85.57 E73.54984
G0 F3600 X98.015 Y85.57
G1 F3000 X104.429 Y91.983 E73.77609
G1 X104.499 Y92.053
;MESH:NONMESH
G0 F600 X104.499 Y92.053 Z0.3
G0 F3600 X104.93 Y107.23
G0 X105 Y107.3
;TIME_ELAPSED:65.362436
;LAYER:1
M140 S60
M106 S255
;TYPE:WALL-INNER
;MESH:srh3.stl
G1 F4710 X105 Y108.151 E73.79732
G1 X98.151 Y115 E74.03893
G1 X81.849 Y115 E74.44559
G1 X75 Y108.151 E74.68721
G1 X75 Y92.99 E75.0654
G1 X82.99 Y85 E75.34727
G1 X98.567 Y85 E75.73584
G1 X105 Y91.433 E75.96278
G1 X105 Y92.775 E75.99626
G1 X125 Y92.8 E76.49516
G1 X125 Y107.3 E76.85686
G1 X105 Y107.3 E77.35576
G0 F5400 X105.4 Y107.7
;TYPE:WALL-OUTER
G1 F3120 X105.4 Y108.317 E77.37116
G1 X98.317 Y115.4 E77.62103
G1 X81.683 Y115.4 E78.03596
G1 X74.6 Y108.317 E78.28584
G1 X74.6 Y92.824 E78.67231
G1 X82.824 Y84.6 E78.96243
G1 X98.733 Y84.6 E79.35929
G1 X105.4 Y91.267 E79.59448
G1 X105.4 Y92.375 E79.62212
G1 X125.4 Y92.4 E80.12102
G1 X125.4 Y107.7 E80.50268
G1 X105.4 Y107.7 E81.00159
G0 F5400 X105.4 Y107.9
G0 X104.61 Y107.991
;TYPE:SKIN
G1 F2700 X97.991 Y114.61 E81.23509
G1 X82.009 Y114.61 E81.63376
G1 X75.39 Y107.991 E81.86727
G1 X75.39 Y93.15 E82.23748
G1 X83.15 Y85.39 E82.51123
G1 X98.407 Y85.39 E82.89182
G1 X104.61 Y91.593 E83.11065
G1 X104.61 Y93.165 E83.14986
G1 X124.61 Y93.19 E83.64876
G1 X124.61 Y106.91 E83.99101
G1 X104.61 Y106.91 E84.48991
G1 X104.61 Y107.991 E84.51688
G0 F5400 X104.972 Y107.272
G0 X124.428 Y106.37
G1 F2700 X124.069 Y106.729 E84.52954
G0 F5400 X123.503 Y106.729
G1 F2700 X124.428 Y105.805 E84.56215
G0 F5400 X124.428 Y105.239
G1 F2700 X122.938 Y106.729 E84.61472
G0 F5400 X122.372 Y106.729
G1 F2700 X124.428 Y104.673 E84.68725
G0 F5400 X124.428 Y104.108
G1 F2700 X121.806 Y106.729 E84.77973
G0 F5400 X121.241 Y106.729
G1 F2700 X124.428 Y103.542 E84.89216
G0 F5400 X124.428 Y102.976
G1 F2700 X120.675 Y106.729 E85.02456
G0 F5400 X120.109 Y106.729
G1 F2700 X124.428 Y102.41 E85.17692
G0 F5400 X124.428 Y101.845
G1 F2700 X119.544 Y106.729 E85.34922
G0 F5400 X118.978 Y106.729
G1 F2700 X124.428 Y101.279 E85.54148
G0 F5400 X124.428 Y100.713
G1 F2700 X118.412 Y106.729 E85.75371
G0 F5400 X117.847 Y106.729
G1 F2700 X124.428 Y100.148 E85.98587
G0 F5400 X124.428 Y99.582
G1 F2700 X117.281 Y106.729 E86.238
G0 F5400 X116.715 Y106.729
G1 F2700 X124.428 Y99.016 E86.5101
G0 F5400 X124.428 Y98.451
G1 F2700 X116.15 Y106.729 E86.80213
G0 F5400 X115.584 Y106.729
G1 F2700 X124.428 Y97.885 E87.11413
G0 F5400 X124.428 Y97.319
G1 F2700 X115.018 Y106.729 E87.44609
G0 F5400 X114.453 Y106.729
G1 F2700 X124.428 Y96.754 E87.79798
G0 F5400 X124.428 Y96.188
G1 F2700 X113.887 Y106.729 E88.16985
G0 F5400 X113.321 Y106.729
G1 F2700 X124.428 Y95.622 E88.56168
G0 F5400 X124.428 Y95.057
G1 F2700 X112.755 Y106.729 E88.97345
G0 F5400 X112.19 Y106.729
G1 F2700 X124.428 Y94.491 E89.40518
G0 F5400 X124.428 Y93.925
G1 F2700 X111.624 Y106.729 E89.85688
G0 F5400 X111.058 Y106.729
G1 F2700 X124.419 Y93.369 E90.32821
G0 F5400 X123.854 Y93.368
G1 F2700 X110.493 Y106.729 E90.79955
G0 F5400 X109.927 Y106.729
G1 F2700 X123.289 Y93.368 E91.27092
G0 F5400 X122.724 Y93.367
G1 F2700 X109.361 Y106.729 E91.74231
G0 F5400 X108.796 Y106.729
G1 F2700 X122.159 Y93.367 E92.21371
G0 F5400 X121.594 Y93.366
G1 F2700 X108.23 Y106.729 E92.68515
G0 F5400 X107.664 Y106.729
G1 F2700 X121.029 Y93.365 E93.15661
G0 F5400 X120.464 Y93.364
G1 F2700 X107.099 Y106.729 E93.6281
G0 F5400 X106.533 Y106.729
G1 F2700 X119.899 Y93.364 E94.0996
G0 F5400 X119.334 Y93.363
G1 F2700 X105.967 Y106.729 E94.57114
G0 F5400 X105.402 Y106.729
G1 F2700 X118.769 Y93.362 E95.0427
G0 F5400 X118.204 Y93.362
G1 F2700 X104.836 Y106.729 E95.51428
G0 F5400 X104.429 Y107.136
G1 F2700 X97.136 Y114.429 E95.77156
G0 F5400 X97.702 Y114.429
G1 F2700 X104.429 Y107.702 E96.00887
G1 X104.499 Y107.632
G0 F5400 X96.57 Y114.429
G1 F2700 X117.639 Y93.361 E96.75212
G0 F5400 X117.074 Y93.36
G1 F2700 X96.005 Y114.429 E97.49538
G0 F5400 X95.439 Y114.429
G1 F2700 X116.509 Y93.36 E98.23867
G0 F5400 X115.944 Y93.359
G1 F2700 X94.873 Y114.429 E98.98199
G0 F5400 X94.308 Y114.429
G1 F2700 X115.379 Y93.358 E99.72532
G0 F5400 X114.814 Y93.357
G1 F2700 X93.742 Y114.429 E100.46869
G0 F5400 X93.176 Y114.429
G1 F2700 X114.249 Y93.357 E101.21208
G0 F5400 X113.684 Y93.356
G1 F2700 X92.611 Y114.429 E101.95549
G0 F5400 X92.045 Y114.429
G1 F2700 X113.119 Y93.355 E102.69893
G0 F5400 X112.554 Y93.355
G1 F2700 X91.479 Y114.429 E103.44239
G0 F5400 X90.914 Y114.429
G1 F2700 X111.989 Y93.354 E104.18587
G0 F5400 X111.424 Y93.353
G1 F2700 X90.348 Y114.429 E104.92938
G0 F5400 X89.782 Y114.429
G1 F2700 X110.859 Y93.352 E105.67293
G0 F5400 X110.294 Y93.352
G1 F2700 X89.217 Y114.429 E106.41648
G0 F5400 X88.651 Y114.429
G1 F2700 X109.729 Y93.351 E107.16006
G0 F5400 X109.164 Y93.35
G1 F2700 X88.085 Y114.429 E107.90368
G0 F5400 X87.52 Y114.429
G1 F2700 X108.599 Y93.35 E108.6473
G0 F5400 X108.034 Y93.349
G1 F2700 X86.954 Y114.429 E109.39095
G0 F5400 X86.388 Y114.429
G1 F2700 X107.469 Y93.348 E110.13464
G0 F5400 X106.904 Y93.347
G1 F2700 X85.822 Y114.429 E110.87837
G0 F5400 X85.257 Y114.429
G1 F2700 X106.339 Y93.347 E111.62209
G0 F5400 X105.774 Y93.346
G1 F2700 X84.691 Y114.429 E112.36585
G0 F5400 X84.125 Y114.429
G1 F2700 X105.209 Y93.345 E113.10965
G0 F5400 X104.644 Y93.345
G1 F2700 X83.56 Y114.429 E113.85344
G0 F5400 X82.994 Y114.429
G1 F2700 X104.429 Y92.995 E114.6096
G0 F5400 X104.429 Y92.429
G1 F2700 X82.428 Y114.429 E115.38573
G0 F5400 X81.973 Y114.319
G1 F2700 X104.429 Y91.863 E116.17792
G0 F5400 X104.244 Y91.482
G1 F2700 X81.69 Y114.036 E116.97358
G0 F5400 X81.407 Y113.753
G1 F2700 X103.961 Y91.199 E117.76923
G0 F5400 X103.678 Y90.916
G1 F2700 X81.124 Y113.47 E118.56488
G0 F5400 X80.842 Y113.187
G1 F2700 X103.395 Y90.634 E119.3605
G0 F5400 X103.113 Y90.351
G1 F2700 X80.559 Y112.905 E120.15616
G0 F5400 X80.276 Y112.622
G1 F2700 X102.83 Y90.068 E120.95181
G0 F5400 X102.547 Y89.785
G1 F2700 X79.993 Y112.339 E121.74746
G0 F5400 X79.71 Y112.056
G1 F2700 X102.264 Y89.502 E122.54312
G0 F5400 X101.981 Y89.219
G1 F2700 X79.427 Y111.773 E123.33877
G0 F5400 X79.145 Y111.49
G1 F2700 X101.698 Y88.937 E124.13439
G0 F5400 X101.416 Y88.654
G1 F2700 X78.862 Y111.208 E124.93004
G0 F5400 X78.579 Y110.925
G1 F2700 X101.133 Y88.371 E125.72569
G0 F5400 X100.85 Y88.088
G1 F2700 X78.296 Y110.642 E126.52135
G0 F5400 X78.013 Y110.359
G1 F2700 X100.567 Y87.805 E127.317
G0 F5400 X100.284 Y87.522
G1 F2700 X77.73 Y110.076 E128.11265
G0 F5400 X77.447 Y109.793
G1 F2700 X100.001 Y87.24 E128.90829
G0 F5400 X99.719 Y86.957
G1 F2700 X77.165 Y109.511 E129.70394
G0 F5400 X76.882 Y109.228
G1 F2700 X99.436 Y86.674 E130.49959
G0 F5400 X99.153 Y86.391
G1 F2700 X76.599 Y108.945 E131.29525
G0 F5400 X76.316 Y108.662
G1 F2700 X98.87 Y86.108 E132.0909
G0 F5400 X98.587 Y85.825
G1 F2700 X76.033 Y108.379 E132.88655
G0 F5400 X75.75 Y108.096
G1 F2700 X98.277 Y85.569 E133.68126
G0 F5400 X97.712 Y85.569
G1 F2700 X75.569 Y107.712 E134.46241
G0 F5400 X75.569 Y107.146
G1 F2700 X97.146 Y85.569 E135.2236
G0 F5400 X96.58 Y85.569
G1 F2700 X75.569 Y106.58 E135.96482
G0 F5400 X75.569 Y106.015
G1 F2700 X96.015 Y85.569 E136.6861
G0 F5400 X95.449 Y85.569
G1 F2700 X75.569 Y105.449 E137.38742
G0 F5400 X75.569 Y104.883
G1 F2700 X94.883 Y85.569 E138.06878
