;FLAVOR:Marlin
;TIME:265
;Filament used: 0.0674804m
;Layer height: 0.06
;MINX:90.567
;MINY:90.7
;MINZ:0.3
;MAXX:109.433
;MAXY:109.3
;MAXZ:3
;Generated with Cura_SteamEngine 4.2.1
M140 S60
M105
M190 S60
M104 S210
M105
M109 S210
M82 ;absolute extrusion mode
G21 ;metric values
 G90 ;absolute positioning
 M82 ;set extruder to absolute mode
 M107 ;start with the fan off
 G28 X0 Y0 ;move X/Y to min endstops
 G28 Z0 ;move Z to min endstops
 G1 Z15.0 F120 ;move the platform down 15mm
 G92 E0 ;zero the extruded length
 G1 F200 E6 ;extrude 6 mm of feed stock
 G92 E0 ;zero the extruded length again
 G1 F120 
 ;Put printing message on LCD screen
 M117 Printing...
M141 S28
G92 E0
G92 E0
G1 F1500 E-6.5
;LAYER_COUNT:46
;LAYER:0
M107
G0 F3600 X93.582 Y93.084 Z0.3
;TYPE:SKIRT
G1 F1500 E0
G1 F1800 X93.8 Y92.891 E0.01453
G1 X93.915 Y92.793 E0.02206
G1 X94.163 Y92.587 E0.03815
G1 X94.576 Y92.28 E0.06382
G1 X95.022 Y91.984 E0.09053
G1 X95.46 Y91.725 E0.11591
G1 X95.706 Y91.597 E0.12975
G1 X96.096 Y91.416 E0.1512
G1 X96.733 Y91.154 E0.18556
G1 X97.205 Y90.988 E0.21052
G1 X97.426 Y90.923 E0.22202
G1 X98.03 Y90.787 E0.25291
G1 X98.638 Y90.73 E0.28337
G1 X99.586 Y90.702 E0.33069
G1 X99.728 Y90.7 E0.33777
G1 X100.505 Y90.7 E0.37654
G1 X101.203 Y90.71 E0.41137
G1 X101.82 Y90.759 E0.44224
G1 X102.605 Y90.941 E0.48245
G1 X103.226 Y91.141 E0.515
G1 X103.822 Y91.378 E0.547
G1 X104.304 Y91.608 E0.57364
G1 X104.741 Y91.845 E0.59844
G1 X105.068 Y92.045 E0.61757
G1 X105.193 Y92.124 E0.62494
G1 X105.387 Y92.251 E0.63651
G1 X105.832 Y92.58 E0.66412
G1 X106.217 Y92.901 E0.68913
G1 X106.594 Y93.252 E0.71483
G1 X106.768 Y93.432 E0.72732
G1 X107.169 Y93.904 E0.75822
G1 X107.436 Y94.304 E0.78221
G1 X107.805 Y94.921 E0.81808
G1 X107.841 Y94.982 E0.82161
G1 X108.291 Y95.76 E0.86645
G1 X108.323 Y95.816 E0.86967
G1 X108.628 Y96.36 E0.90078
G1 X108.895 Y96.918 E0.93165
G1 X109.105 Y97.571 E0.96587
G1 X109.21 Y98.002 E0.988
G1 X109.248 Y98.174 E0.99679
G1 X109.297 Y98.413 E1.00896
G1 X109.382 Y99.029 E1.03998
G1 X109.422 Y99.58 E1.06754
G1 X109.433 Y100.049 E1.09095
G1 X109.425 Y100.365 E1.10672
G1 X109.419 Y100.518 E1.11436
G1 X109.403 Y100.798 E1.12835
G1 X109.34 Y101.349 E1.15602
G1 X109.247 Y101.882 E1.18301
G1 X109.144 Y102.338 E1.20633
G1 X109.103 Y102.486 E1.214
G1 X108.899 Y103.071 E1.24491
G1 X108.673 Y103.535 E1.27065
G1 X108.071 Y104.619 E1.33252
G1 X107.996 Y104.75 E1.34005
G1 X107.6 Y105.413 E1.37858
G1 X107.491 Y105.587 E1.38882
G1 X107.248 Y105.957 E1.4109
G1 X106.875 Y106.452 E1.44183
G1 X106.418 Y106.916 E1.47432
G1 X106.2 Y107.109 E1.48884
G1 X106.107 Y107.189 E1.49496
G1 X105.862 Y107.395 E1.51093
G1 X105.411 Y107.731 E1.53899
G1 X104.961 Y108.027 E1.56586
G1 X104.539 Y108.275 E1.59028
G1 X104.295 Y108.402 E1.60401
G1 X103.908 Y108.582 E1.6253
G1 X103.27 Y108.845 E1.65973
G1 X102.795 Y109.012 E1.68485
G1 X102.574 Y109.077 E1.69634
G1 X101.97 Y109.213 E1.72723
G1 X101.362 Y109.27 E1.7577
G1 X100.414 Y109.298 E1.80501
G1 X100.272 Y109.3 E1.8121
G1 X99.495 Y109.3 E1.85086
G1 X98.797 Y109.29 E1.88569
G1 X98.18 Y109.241 E1.91657
G1 X97.447 Y109.075 E1.95406
G1 X97.069 Y108.958 E1.9738
G1 X96.937 Y108.915 E1.98073
G1 X96.694 Y108.832 E1.99354
G1 X96.181 Y108.623 E2.02118
G1 X95.694 Y108.391 E2.04809
G1 X95.244 Y108.147 E2.07363
G1 X94.922 Y107.949 E2.09249
G1 X94.806 Y107.876 E2.09933
G1 X94.609 Y107.747 E2.11107
G1 X94.166 Y107.418 E2.1386
G1 X93.782 Y107.098 E2.16354
G1 X93.394 Y106.737 E2.18998
G1 X93.222 Y106.558 E2.20237
G1 X92.822 Y106.084 E2.23331
G1 X92.563 Y105.695 E2.25663
G1 X92.178 Y105.051 E2.29406
G1 X92.142 Y104.989 E2.29764
G1 X91.703 Y104.229 E2.34142
G1 X91.672 Y104.176 E2.34449
G1 X91.372 Y103.641 E2.37509
G1 X91.105 Y103.082 E2.40599
G1 X90.898 Y102.44 E2.43965
G1 X90.787 Y101.989 E2.46282
G1 X90.742 Y101.787 E2.47314
G1 X90.698 Y101.568 E2.48429
G1 X90.616 Y100.962 E2.5148
G1 X90.577 Y100.411 E2.54236
G1 X90.567 Y99.951 E2.56531
G1 X90.575 Y99.635 E2.58108
G1 X90.581 Y99.472 E2.58922
G1 X90.599 Y99.168 E2.60441
G1 X90.667 Y98.603 E2.6328
G1 X90.761 Y98.08 E2.65931
G1 X90.876 Y97.588 E2.68452
G1 X90.915 Y97.454 E2.69148
G1 X91.126 Y96.871 E2.72242
G1 X91.329 Y96.462 E2.7452
G1 X91.958 Y95.331 E2.80976
G1 X92.034 Y95.199 E2.81736
G1 X92.411 Y94.569 E2.85399
G1 X92.519 Y94.397 E2.86412
G1 X92.753 Y94.041 E2.88538
G1 X93.126 Y93.547 E2.91626
G1 X93.582 Y93.084 E2.94868
G0 F3600 X93.847 Y93.384
G1 F1800 X94.065 Y93.191 E2.9632
G1 X94.171 Y93.1 E2.97017
G1 X94.419 Y92.894 E2.98626
G1 X94.797 Y92.613 E3.00976
G1 X95.243 Y92.317 E3.03646
G1 X95.645 Y92.08 E3.05975
G1 X95.891 Y91.952 E3.07358
G1 X96.248 Y91.786 E3.09322
G1 X96.885 Y91.524 E3.12759
G1 X97.317 Y91.372 E3.15043
G1 X97.538 Y91.307 E3.16193
G1 X98.117 Y91.178 E3.19152
G1 X98.65 Y91.13 E3.21822
G1 X99.598 Y91.102 E3.26554
G1 X99.728 Y91.1 E3.27202
G1 X100.499 Y91.1 E3.31049
G1 X101.197 Y91.11 E3.34532
G1 X101.788 Y91.159 E3.3749
G1 X102.483 Y91.322 E3.41052
G1 X103.104 Y91.522 E3.44306
G1 X103.65 Y91.739 E3.47238
G1 X104.132 Y91.969 E3.49902
G1 X104.533 Y92.186 E3.52177
G1 X104.86 Y92.386 E3.54089
G1 X104.974 Y92.459 E3.54765
G1 X105.168 Y92.586 E3.55921
G1 X105.576 Y92.888 E3.58454
G1 X105.961 Y93.209 E3.60955
G1 X106.307 Y93.53 E3.63309
G1 X106.481 Y93.71 E3.64558
G1 X106.863 Y94.163 E3.67515
G1 X107.093 Y94.51 E3.69592
G1 X107.462 Y95.127 E3.73178
G1 X107.495 Y95.182 E3.73498
G1 X107.945 Y95.96 E3.77982
G1 X107.974 Y96.011 E3.78275
G1 X108.279 Y96.555 E3.81387
G1 X108.533 Y97.091 E3.84346
G1 X108.716 Y97.666 E3.87356
G1 X108.821 Y98.097 E3.89569
G1 X108.856 Y98.254 E3.90372
G1 X108.905 Y98.493 E3.91589
G1 X108.983 Y99.058 E3.94435
G1 X109.023 Y99.609 E3.97191
G1 X109.034 Y100.039 E3.99337
G1 X109.026 Y100.355 E4.00914
G1 X109.02 Y100.495 E4.01613
G1 X109.004 Y100.775 E4.03012
G1 X108.946 Y101.28 E4.05548
G1 X108.853 Y101.813 E4.08247
G1 X108.758 Y102.232 E4.10391
G1 X108.717 Y102.38 E4.11157
G1 X108.521 Y102.939 E4.14112
G1 X108.324 Y103.341 E4.16346
G1 X107.722 Y104.425 E4.22532
G1 X107.652 Y104.545 E4.23225
G1 X107.256 Y105.208 E4.27078
G1 X107.157 Y105.367 E4.28012
G1 X106.914 Y105.737 E4.30221
G1 X106.556 Y106.21 E4.3318
G1 X106.153 Y106.616 E4.36034
G1 X105.935 Y106.809 E4.37487
G1 X105.85 Y106.883 E4.38049
G1 X105.605 Y107.089 E4.39646
G1 X105.191 Y107.397 E4.4222
G1 X104.741 Y107.693 E4.44908
G1 X104.354 Y107.92 E4.47146
G1 X104.11 Y108.047 E4.48518
G1 X103.756 Y108.212 E4.50467
G1 X103.118 Y108.475 E4.5391
G1 X102.683 Y108.628 E4.5621
G1 X102.462 Y108.693 E4.5736
G1 X101.883 Y108.822 E4.60319
G1 X101.35 Y108.87 E4.62989
G1 X100.402 Y108.898 E4.67721
G1 X100.272 Y108.9 E4.68369
G1 X99.501 Y108.9 E4.72216
G1 X98.803 Y108.89 E4.75699
G1 X98.212 Y108.841 E4.78657
G1 X97.565 Y108.693 E4.81968
G1 X97.187 Y108.576 E4.83943
G1 X97.066 Y108.537 E4.84577
G1 X96.823 Y108.454 E4.85858
G1 X96.353 Y108.262 E4.88391
G1 X95.866 Y108.03 E4.91082
G1 X95.453 Y107.806 E4.93426
G1 X95.131 Y107.608 E4.95312
G1 X95.026 Y107.541 E4.95933
G1 X94.829 Y107.412 E4.97108
G1 X94.422 Y107.111 E4.99634
G1 X94.038 Y106.791 E5.02127
G1 X93.682 Y106.46 E5.04553
G1 X93.51 Y106.281 E5.05791
G1 X93.129 Y105.826 E5.08752
G1 X92.906 Y105.49 E5.10764
G1 X92.521 Y104.846 E5.14507
G1 X92.488 Y104.789 E5.14836
G1 X92.049 Y104.029 E5.19214
G1 X92.021 Y103.98 E5.19496
G1 X91.721 Y103.445 E5.22556
G1 X91.467 Y102.909 E5.25515
G1 X91.287 Y102.345 E5.28469
G1 X91.176 Y101.894 E5.30786
G1 X91.134 Y101.709 E5.31733
G1 X91.09 Y101.49 E5.32847
G1 X91.015 Y100.934 E5.35646
G1 X90.976 Y100.383 E5.38402
G1 X90.966 Y99.961 E5.40508
G1 X90.974 Y99.645 E5.42085
G1 X90.981 Y99.496 E5.42829
G1 X90.999 Y99.192 E5.44348
G1 X91.06 Y98.674 E5.46951
G1 X91.154 Y98.151 E5.49602
G1 X91.26 Y97.699 E5.51918
G1 X91.299 Y97.565 E5.52614
G1 X91.503 Y97.009 E5.55569
G1 X91.679 Y96.656 E5.57537
G1 X92.308 Y95.525 E5.63993
G1 X92.377 Y95.405 E5.64684
G1 X92.754 Y94.775 E5.68347
G1 X92.853 Y94.617 E5.69277
G1 X93.087 Y94.261 E5.71402
G1 X93.446 Y93.789 E5.74361
G1 X93.847 Y93.384 E5.77204
G0 F3600 X94.113 Y93.683
G1 F1800 X94.331 Y93.49 E5.78657
G1 X94.426 Y93.408 E5.79283
G1 X94.674 Y93.202 E5.80891
G1 X95.018 Y92.946 E5.83031
G1 X95.464 Y92.65 E5.85701
G1 X95.83 Y92.435 E5.87819
G1 X96.076 Y92.307 E5.89203
G1 X96.4 Y92.156 E5.90986
G1 X97.037 Y91.894 E5.94422
G1 X97.43 Y91.756 E5.965
G1 X97.651 Y91.691 E5.9765
G1 X98.204 Y91.57 E6.00474
G1 X98.662 Y91.53 E6.02767
G1 X99.61 Y91.502 E6.07499
G1 X99.728 Y91.5 E6.08088
G1 X100.493 Y91.5 E6.11904
G1 X101.191 Y91.51 E6.15387
G1 X101.755 Y91.558 E6.18211
G1 X102.36 Y91.703 E6.21315
G1 X102.981 Y91.903 E6.2457
G1 X103.478 Y92.1 E6.27237
G1 X103.96 Y92.33 E6.29902
G1 X104.324 Y92.528 E6.31969
G1 X104.651 Y92.728 E6.33881
G1 X104.755 Y92.793 E6.34493
G1 X104.949 Y92.92 E6.3565
G1 X105.32 Y93.195 E6.37954
G1 X105.705 Y93.516 E6.40455
G1 X106.019 Y93.808 E6.42594
G1 X106.193 Y93.988 E6.43843
G1 X106.556 Y94.421 E6.46662
G1 X106.75 Y94.715 E6.48419
G1 X107.119 Y95.332 E6.52006
G1 X107.149 Y95.382 E6.52297
G1 X107.599 Y96.16 E6.56781
G1 X107.625 Y96.207 E6.57049
G1 X107.93 Y96.751 E6.6016
G1 X108.171 Y97.262 E6.62979
G1 X108.327 Y97.76 E6.65582
G1 X108.432 Y98.191 E6.67796
G1 X108.464 Y98.335 E6.68532
G1 X108.513 Y98.574 E6.69749
G1 X108.585 Y99.087 E6.72333
G1 X108.625 Y99.638 E6.75089
G1 X108.634 Y100.029 E6.77041
G1 X108.626 Y100.345 E6.78618
G1 X108.62 Y100.472 E6.79252
G1 X108.604 Y100.752 E6.80651
G1 X108.551 Y101.212 E6.82961
G1 X108.458 Y101.745 E6.85661
G1 X108.373 Y102.125 E6.87603
G1 X108.332 Y102.273 E6.88369
G1 X108.143 Y102.806 E6.91191
G1 X107.974 Y103.147 E6.9309
G1 X107.372 Y104.231 E6.99276
G1 X107.309 Y104.34 E6.99904
G1 X106.913 Y105.003 E7.03757
G1 X106.822 Y105.148 E7.04611
G1 X106.579 Y105.518 E7.06819
G1 X106.236 Y105.967 E7.09638
G1 X105.887 Y106.317 E7.12104
G1 X105.669 Y106.51 E7.13557
G1 X105.592 Y106.577 E7.14066
G1 X105.347 Y106.783 E7.15663
G1 X104.971 Y107.063 E7.18002
G1 X104.521 Y107.359 E7.20689
G1 X104.17 Y107.565 E7.22719
G1 X103.926 Y107.692 E7.24092
G1 X103.603 Y107.842 E7.25868
G1 X102.965 Y108.105 E7.29311
G1 X102.57 Y108.244 E7.314
G1 X102.349 Y108.309 E7.3255
G1 X101.796 Y108.43 E7.35374
G1 X101.338 Y108.47 E7.37667
G1 X100.39 Y108.498 E7.42399
G1 X100.272 Y108.5 E7.42988
G1 X99.507 Y108.5 E7.46804
G1 X98.809 Y108.49 E7.50287
G1 X98.245 Y108.442 E7.53111
G1 X97.683 Y108.311 E7.5599
G1 X97.305 Y108.194 E7.57964
G1 X97.195 Y108.158 E7.58542
G1 X96.952 Y108.075 E7.59823
G1 X96.525 Y107.901 E7.62123
G1 X96.038 Y107.669 E7.64814
G1 X95.663 Y107.465 E7.66944
G1 X95.341 Y107.267 E7.6883
G1 X95.245 Y107.206 E7.69398
G1 X95.048 Y107.077 E7.70572
G1 X94.678 Y106.804 E7.72866
G1 X94.294 Y106.484 E7.7536
G1 X93.971 Y106.182 E7.77566
G1 X93.799 Y106.003 E7.78805
G1 X93.437 Y105.569 E7.81624
G1 X93.25 Y105.284 E7.83325
G1 X92.865 Y104.64 E7.87068
G1 X92.834 Y104.589 E7.87366
G1 X92.395 Y103.829 E7.91745
G1 X92.37 Y103.784 E7.92002
G1 X92.07 Y103.249 E7.95062
G1 X91.829 Y102.738 E7.9788
G1 X91.675 Y102.249 E8.00438
G1 X91.564 Y101.798 E8.02755
G1 X91.526 Y101.63 E8.03615
G1 X91.482 Y101.411 E8.04729
G1 X91.414 Y100.905 E8.07276
G1 X91.375 Y100.354 E8.10032
G1 X91.366 Y99.971 E8.11943
G1 X91.374 Y99.655 E8.1352
G1 X91.38 Y99.52 E8.14195
G1 X91.398 Y99.216 E8.15714
G1 X91.454 Y98.744 E8.18085
G1 X91.548 Y98.221 E8.20736
G1 X91.644 Y97.811 E8.22837
G1 X91.683 Y97.677 E8.23533
G1 X91.879 Y97.147 E8.26353
G1 X92.028 Y96.851 E8.28006
G1 X92.657 Y95.72 E8.34462
G1 X92.721 Y95.61 E8.35097
G1 X93.098 Y94.98 E8.3876
G1 X93.187 Y94.837 E8.39601
G1 X93.421 Y94.481 E8.41726
G1 X93.765 Y94.032 E8.44548
G1 X94.113 Y93.683 E8.47007
G0 F3600 X94.378 Y93.983
G1 F1800 X94.596 Y93.79 E8.48459
G1 X94.682 Y93.716 E8.49025
G1 X94.93 Y93.51 E8.50634
G1 X95.239 Y93.279 E8.52559
G1 X95.685 Y92.983 E8.55229
G1 X96.014 Y92.789 E8.57135
G1 X96.26 Y92.661 E8.58518
G1 X96.553 Y92.526 E8.60128
G1 X97.19 Y92.264 E8.63564
G1 X97.543 Y92.139 E8.65432
G1 X97.764 Y92.074 E8.66582
G1 X98.289 Y91.962 E8.6926
G1 X98.674 Y91.93 E8.71187
G1 X99.622 Y91.902 E8.75919
G1 X99.728 Y91.9 E8.76448
G1 X100.488 Y91.9 E8.80239
G1 X101.186 Y91.91 E8.83722
G1 X101.72 Y91.958 E8.86397
G1 X102.238 Y92.083 E8.89055
G1 X102.859 Y92.283 E8.9231
G1 X103.305 Y92.461 E8.94706
G1 X103.787 Y92.691 E8.97371
G1 X104.115 Y92.869 E8.99232
G1 X104.442 Y93.069 E9.01145
G1 X104.536 Y93.128 E9.01698
G1 X104.73 Y93.255 E9.02855
G1 X105.063 Y93.502 E9.04924
G1 X105.448 Y93.823 E9.07425
G1 X105.731 Y94.086 E9.09352
G1 X105.905 Y94.266 E9.10601
G1 X106.248 Y94.678 E9.13276
G1 X106.407 Y94.92 E9.1472
G1 X106.776 Y95.537 E9.18307
G1 X106.802 Y95.583 E9.18571
G1 X107.252 Y96.361 E9.23054
G1 X107.276 Y96.402 E9.23291
G1 X107.581 Y96.946 E9.26403
G1 X107.808 Y97.432 E9.29079
G1 X107.939 Y97.855 E9.31288
G1 X108.044 Y98.286 E9.33501
G1 X108.073 Y98.415 E9.34161
G1 X108.122 Y98.654 E9.35378
G1 X108.186 Y99.116 E9.37705
G1 X108.226 Y99.667 E9.40461
G1 X108.234 Y100.019 E9.42218
G1 X108.226 Y100.335 E9.43795
G1 X108.221 Y100.449 E9.44364
G1 X108.205 Y100.729 E9.45764
G1 X108.157 Y101.143 E9.47843
G1 X108.064 Y101.676 E9.50542
G1 X107.987 Y102.018 E9.52291
G1 X107.946 Y102.166 E9.53057
G1 X107.765 Y102.671 E9.55734
G1 X107.624 Y102.953 E9.57307
G1 X107.022 Y104.037 E9.63493
G1 X106.966 Y104.135 E9.64056
G1 X106.57 Y104.798 E9.67909
G1 X106.488 Y104.928 E9.68676
G1 X106.245 Y105.298 E9.70884
G1 X105.918 Y105.723 E9.73559
G1 X105.622 Y106.017 E9.75641
G1 X105.404 Y106.21 E9.77093
G1 X105.335 Y106.27 E9.77549
G1 X105.09 Y106.476 E9.79146
G1 X104.751 Y106.729 E9.81257
G1 X104.301 Y107.025 E9.83944
G1 X103.985 Y107.21 E9.85771
G1 X103.741 Y107.337 E9.87143
G1 X103.451 Y107.472 E9.88739
G1 X102.813 Y107.735 E9.92182
G1 X102.457 Y107.861 E9.94066
G1 X102.236 Y107.926 E9.95215
G1 X101.711 Y108.038 E9.97893
G1 X101.326 Y108.07 E9.99821
G1 X100.378 Y108.098 E10.04552
G1 X100.272 Y108.1 E10.05081
G1 X99.512 Y108.1 E10.08873
G1 X98.814 Y108.09 E10.12356
G1 X98.28 Y108.042 E10.15031
G1 X97.802 Y107.929 E10.17481
G1 X97.424 Y107.812 E10.19455
G1 X97.324 Y107.78 E10.19979
G1 X97.081 Y107.697 E10.2126
G1 X96.697 Y107.54 E10.2333
G1 X96.21 Y107.308 E10.26021
G1 X95.872 Y107.125 E10.27939
G1 X95.55 Y106.927 E10.29825
G1 X95.464 Y106.872 E10.30334
G1 X95.267 Y106.743 E10.31509
G1 X94.934 Y106.497 E10.33574
G1 X94.55 Y106.177 E10.36068
G1 X94.259 Y105.905 E10.38055
G1 X94.087 Y105.726 E10.39294
G1 X93.745 Y105.313 E10.41969
G1 X93.593 Y105.079 E10.43361
G1 X93.208 Y104.435 E10.47104
G1 X93.181 Y104.389 E10.4737
G1 X92.742 Y103.629 E10.51749
G1 X92.719 Y103.589 E10.51979
G1 X92.419 Y103.054 E10.5504
G1 X92.192 Y102.568 E10.57716
G1 X92.063 Y102.153 E10.59884
G1 X91.952 Y101.702 E10.62201
G1 X91.919 Y101.551 E10.62972
G1 X91.875 Y101.332 E10.64087
G1 X91.813 Y100.877 E10.66378
G1 X91.774 Y100.326 E10.69133
G1 X91.766 Y99.981 E10.70855
G1 X91.774 Y99.665 E10.72432
G1 X91.779 Y99.543 E10.73041
G1 X91.797 Y99.239 E10.74561
G1 X91.848 Y98.815 E10.76691
G1 X91.942 Y98.292 E10.79342
G1 X92.028 Y97.923 E10.81233
G1 X92.067 Y97.789 E10.81929
G1 X92.255 Y97.287 E10.84603
G1 X92.378 Y97.045 E10.85958
G1 X93.007 Y95.914 E10.92414
G1 X93.064 Y95.815 E10.92984
G1 X93.441 Y95.185 E10.96647
G1 X93.522 Y95.057 E10.97403
G1 X93.756 Y94.701 E10.99528
G1 X94.083 Y94.276 E11.02203
G1 X94.378 Y93.983 E11.04278
G0 F3600 X94.643 Y94.282
G1 F1800 X94.861 Y94.089 E11.0573
G1 X94.937 Y94.023 E11.06232
G1 X95.185 Y93.817 E11.07841
G1 X95.46 Y93.613 E11.09549
G1 X95.906 Y93.317 E11.1222
G1 X96.199 Y93.144 E11.13917
G1 X96.445 Y93.016 E11.15301
G1 X96.705 Y92.896 E11.16729
G1 X97.342 Y92.634 E11.20166
G1 X97.656 Y92.523 E11.21827
G1 X97.877 Y92.458 E11.22976
G1 X98.372 Y92.354 E11.255
G1 X98.686 Y92.329 E11.27071
G1 X99.634 Y92.301 E11.31803
G1 X99.728 Y92.3 E11.32272
G1 X100.482 Y92.3 E11.36034
G1 X101.18 Y92.31 E11.39517
G1 X101.683 Y92.357 E11.42037
G1 X102.115 Y92.464 E11.44257
G1 X102.736 Y92.664 E11.47512
G1 X103.133 Y92.822 E11.49644
G1 X103.615 Y93.052 E11.52308
G1 X103.907 Y93.21 E11.53965
G1 X104.234 Y93.41 E11.55877
G1 X104.317 Y93.463 E11.56368
G1 X104.511 Y93.59 E11.57525
G1 X104.807 Y93.809 E11.59362
G1 X105.192 Y94.13 E11.61863
G1 X105.444 Y94.364 E11.63579
